( pcb2gcode 2.0.0 )
( Software-independent Gcode )

G94 ( Inches per minute feed rate. )
G20 ( Units == INCHES. )

G90 ( Absolute coordinates. )
G00 S5000 ( RPM spindle speed. )
G64 P0.00040 ( set maximum deviation from commanded toolpath )
G01 F1.96850 ( Feedrate. )


G00 Z0.39370 (Retract to tool change height)
T0
M5      (Spindle stop.)
G04 P1.00000 (Wait for spindle to stop)
(MSG, Change tool bit to mill diameter 0.00000in)
M6      (Tool change.)
M0      (Temporary machine stop.)
M3 ( Spindle on clockwise. )
G04 P1.00000 (Wait for spindle to get up to speed)
G04 P0 ( dwell for no time -- G64 should not smooth over this point )
G00 Z0.03937 ( retract )

G00 X0.10465 Y-0.24848 ( rapid move to begin. )
G01 F0.98425
G01 Z-0.00591
G04 P0 ( dwell for no time -- G64 should not smooth over this point )
G01 F1.96850
G01 X0.10465 Y-0.24848
G01 X0.10503 Y-0.18968
G01 X0.18413 Y-0.11005
G01 X0.18668 Y-0.10868
G01 X0.37986 Y-0.10867
G01 X0.38300 Y-0.11071
G01 X0.38390 Y-0.11339
G01 X0.38115 Y-0.12214
G01 X0.38213 Y-0.14273
G01 X0.38742 Y-0.15550
G01 X0.39197 Y-0.15687
G01 X0.40496 Y-0.14389
G01 X0.40226 Y-0.13647
G01 X0.40157 Y-0.12992
G01 X0.40226 Y-0.12337
G01 X0.40430 Y-0.11711
G01 X0.40759 Y-0.11141
G01 X0.41200 Y-0.10651
G01 X0.41732 Y-0.10264
G01 X0.42334 Y-0.09997
G01 X0.42978 Y-0.09860
G01 X0.43636 Y-0.09860
G01 X0.44280 Y-0.09997
G01 X0.44882 Y-0.10264
G01 X0.45415 Y-0.10651
G01 X0.45855 Y-0.11141
G01 X0.46184 Y-0.11711
G01 X0.46388 Y-0.12337
G01 X0.46457 Y-0.12992
G01 X0.46388 Y-0.13647
G01 X0.46118 Y-0.14389
G01 X0.47417 Y-0.15687
G01 X0.47858 Y-0.15554
G01 X0.48500 Y-0.13770
G01 X0.48401 Y-0.11711
G01 X0.48296 Y-0.11358
G01 X0.48443 Y-0.11005
G01 X0.48796 Y-0.10858
G01 X0.52168 Y-0.10896
G01 X0.56185 Y-0.14860
G01 X0.56327 Y-0.15123
G01 X0.56327 Y-0.15318
G01 X0.56190 Y-0.15574
G01 X0.50495 Y-0.21269
G01 X0.50211 Y-0.21471
G01 X0.49551 Y-0.22458
G01 X0.49319 Y-0.23622
G01 X0.49378 Y-0.23965
G01 X0.49378 Y-0.30073
G01 X0.50228 Y-0.30949
G01 X0.50394 Y-0.31496
G01 X0.50394 Y-0.60935
G01 X0.54481 Y-0.65001
G01 X0.54590 Y-0.65163
G01 X0.54618 Y-0.65452
G01 X0.54481 Y-0.65708
G01 X0.49170 Y-0.71019
G01 X0.48997 Y-0.71131
G01 X0.48794 Y-0.71165
G01 X0.48594 Y-0.71113
G01 X0.48432 Y-0.70985
G01 X0.48336 Y-0.70803
G01 X0.48321 Y-0.70597
G01 X0.48500 Y-0.70069
G01 X0.48401 Y-0.68011
G01 X0.47872 Y-0.66733
G01 X0.47417 Y-0.66596
G01 X0.46118 Y-0.67895
G01 X0.46388 Y-0.68636
G01 X0.46457 Y-0.69291
G01 X0.46388 Y-0.69946
G01 X0.46118 Y-0.70688
G01 X0.47417 Y-0.71987
G01 X0.47686 Y-0.71949
G01 X0.47880 Y-0.72015
G01 X0.48031 Y-0.72152
G01 X0.48115 Y-0.72339
G01 X0.47941 Y-0.73425
G01 X0.48000 Y-0.73768
G01 X0.47962 Y-0.82606
G01 X0.46589 Y-0.83979
G01 X0.46300 Y-0.84008
G01 X0.46034 Y-0.83858
G01 X0.45675 Y-0.83849
G01 X0.45419 Y-0.83712
G01 X0.45282 Y-0.83456
G01 X0.45311 Y-0.83167
G01 X0.45898 Y-0.82526
G01 X0.45898 Y-0.80508
G01 X0.45593 Y-0.79773
G01 X0.45031 Y-0.79210
G01 X0.44291 Y-0.78905
G01 X0.44272 Y-0.81491
G01 X0.44125 Y-0.81846
G01 X0.43898 Y-0.82101
G01 X0.43898 Y-0.86811
G01 X0.37598 Y-0.86811
G01 X0.37598 Y-0.84858
G01 X0.35930 Y-0.84858
G01 X0.35598 Y-0.85190
G01 X0.35598 Y-0.87209
G01 X0.35657 Y-0.87450
G01 X0.35549 Y-0.88041
G01 X0.35549 Y-0.89911
G01 X0.35667 Y-0.90551
G01 X0.35549 Y-0.91191
G01 X0.35549 Y-0.93061
G01 X0.35667 Y-0.93701
G01 X0.35549 Y-0.94341
G01 X0.35540 Y-0.95038
G01 X0.35403 Y-0.95294
G01 X0.35241 Y-0.95403
G01 X0.26252 Y-0.95403
G01 X0.19524 Y-0.88728
G01 X0.19415 Y-0.88566
G01 X0.19387 Y-0.88277
G01 X0.19461 Y-0.88097
G01 X0.19749 Y-0.87859
G01 X0.20191 Y-0.87198
G01 X0.20356 Y-0.86368
G01 X0.20356 Y-0.79774
G01 X0.20191 Y-0.78944
G01 X0.19749 Y-0.78282
G01 X0.19087 Y-0.77840
G01 X0.18750 Y-0.77687
G01 X0.18613 Y-0.77431
G01 X0.18613 Y-0.77236
G01 X0.19997 Y-0.75157
G01 X0.20412 Y-0.73071
G01 X0.20250 Y-0.72209
G01 X0.20334 Y-0.71931
G01 X0.33364 Y-0.58888
G01 X0.33648 Y-0.58687
G01 X0.34307 Y-0.57700
G01 X0.34539 Y-0.56535
G01 X0.34480 Y-0.56192
G01 X0.34480 Y-0.48097
G01 X0.34518 Y-0.47905
G01 X0.34696 Y-0.47674
G01 X0.34858 Y-0.47566
G01 X0.35147 Y-0.47537
G01 X0.35327 Y-0.47612
G01 X0.35511 Y-0.47836
G01 X0.35549 Y-0.50541
G01 X0.35714 Y-0.51371
G01 X0.36156 Y-0.52032
G01 X0.36818 Y-0.52475
G01 X0.37648 Y-0.52639
G01 X0.43848 Y-0.52639
G01 X0.44678 Y-0.52475
G01 X0.45339 Y-0.52032
G01 X0.45782 Y-0.51371
G01 X0.45947 Y-0.50541
G01 X0.45947 Y-0.44734
G01 X0.45829 Y-0.44094
G01 X0.45947 Y-0.43455
G01 X0.45947 Y-0.41585
G01 X0.45829 Y-0.40945
G01 X0.45947 Y-0.40305
G01 X0.45947 Y-0.38435
G01 X0.45829 Y-0.37795
G01 X0.45947 Y-0.37155
G01 X0.45947 Y-0.35285
G01 X0.45829 Y-0.34646
G01 X0.45947 Y-0.34006
G01 X0.45947 Y-0.32136
G01 X0.45839 Y-0.31545
G01 X0.45898 Y-0.31303
G01 X0.45898 Y-0.29376
G01 X0.45474 Y-0.28953
G01 X0.43898 Y-0.28953
G01 X0.43898 Y-0.30906
G01 X0.37598 Y-0.30906
G01 X0.37598 Y-0.29961
G01 X0.35427 Y-0.29961
G01 X0.35098 Y-0.30087
G01 X0.26524 Y-0.30087
G01 X0.26181 Y-0.30028
G01 X0.25017 Y-0.30260
G01 X0.24030 Y-0.30919
G01 X0.23828 Y-0.31203
G01 X0.20618 Y-0.34413
G01 X0.20456 Y-0.34522
G01 X0.20167 Y-0.34550
G01 X0.19987 Y-0.34475
G01 X0.19749 Y-0.34188
G01 X0.19087 Y-0.33746
G01 X0.18601 Y-0.33612
G01 X0.18464 Y-0.33479
G01 X0.18375 Y-0.33209
G01 X0.18506 Y-0.32857
G01 X0.19539 Y-0.31724
G01 X0.20084 Y-0.30407
G01 X0.19857 Y-0.29976
G01 X0.18135 Y-0.29976
G01 X0.18018 Y-0.30338
G01 X0.17668 Y-0.30943
G01 X0.17200 Y-0.31463
G01 X0.16634 Y-0.31874
G01 X0.15995 Y-0.32159
G01 X0.15310 Y-0.32305
G01 X0.14611 Y-0.32305
G01 X0.13926 Y-0.32159
G01 X0.13287 Y-0.31874
G01 X0.12721 Y-0.31463
G01 X0.12253 Y-0.30943
G01 X0.11903 Y-0.30338
G01 X0.11687 Y-0.29672
G01 X0.11614 Y-0.28976
G01 X0.11687 Y-0.28281
G01 X0.11903 Y-0.27615
G01 X0.12253 Y-0.27009
G01 X0.12721 Y-0.26489
G01 X0.13287 Y-0.26078
G01 X0.13961 Y-0.25786
G01 X0.13961 Y-0.24078
G01 X0.13543 Y-0.23859
G01 X0.11793 Y-0.24681
G01 X0.11299 Y-0.25220
G01 X0.11119 Y-0.25324
G01 X0.10962 Y-0.25348
G01 X0.10668 Y-0.25251
G01 X0.10560 Y-0.25142
G01 X0.10465 Y-0.24848
G04 P0 ( dwell for no time -- G64 should not smooth over this point )
G00 Z0.03937 ( retract )

G00 X0.06496 Y-0.36811 ( rapid move to begin. )
G01 F0.98425
G01 Z-0.00591
G04 P0 ( dwell for no time -- G64 should not smooth over this point )
G01 F1.96850
G01 X0.06496 Y-0.36811
G01 X0.06571 Y-0.37188
G01 X0.06784 Y-0.37507
G01 X0.09099 Y-0.39795
G01 X0.09646 Y-0.39961
G01 X0.11614 Y-0.39961
G01 X0.11614 Y-0.42323
G01 X0.18307 Y-0.42323
G01 X0.18307 Y-0.39961
G01 X0.20275 Y-0.39961
G01 X0.20822 Y-0.39795
G01 X0.26589 Y-0.34055
G01 X0.43898 Y-0.34055
G01 X0.43898 Y-0.32087
G01 X0.25989 Y-0.32105
G01 X0.25485 Y-0.32375
G01 X0.19868 Y-0.37992
G01 X0.18307 Y-0.37992
G01 X0.18307 Y-0.35630
G01 X0.11614 Y-0.35630
G01 X0.11614 Y-0.37992
G01 X0.10053 Y-0.37992
G01 X0.08464 Y-0.36403
G01 X0.08464 Y-0.18124
G01 X0.17730 Y-0.08858
G01 X0.53012 Y-0.08858
G01 X0.57991 Y-0.13811
G01 X0.58538 Y-0.13976
G01 X0.60018 Y-0.13976
G01 X0.60189 Y-0.14403
G01 X0.51666 Y-0.22926
G01 X0.51453 Y-0.23245
G01 X0.51378 Y-0.23622
G01 X0.51397 Y-0.58853
G01 X0.51666 Y-0.59357
G01 X0.57663 Y-0.65354
G01 X0.50288 Y-0.72729
G01 X0.50075 Y-0.73049
G01 X0.50000 Y-0.73425
G01 X0.50000 Y-0.83451
G01 X0.45458 Y-0.87992
G01 X0.37598 Y-0.87992
G01 X0.37598 Y-0.89961
G01 X0.45866 Y-0.89961
G01 X0.46243 Y-0.89886
G01 X0.46562 Y-0.89672
G01 X0.51680 Y-0.84554
G01 X0.51894 Y-0.84235
G01 X0.51968 Y-0.83858
G01 X0.51968 Y-0.73833
G01 X0.59055 Y-0.66746
G01 X0.60189 Y-0.67881
G01 X0.59911 Y-0.68636
G01 X0.59842 Y-0.69291
G01 X0.59911 Y-0.69946
G01 X0.60115 Y-0.70572
G01 X0.60444 Y-0.71143
G01 X0.60885 Y-0.71632
G01 X0.61417 Y-0.72019
G01 X0.62019 Y-0.72287
G01 X0.62663 Y-0.72424
G01 X0.63321 Y-0.72424
G01 X0.63965 Y-0.72287
G01 X0.64567 Y-0.72019
G01 X0.65100 Y-0.71632
G01 X0.65540 Y-0.71143
G01 X0.65869 Y-0.70572
G01 X0.66073 Y-0.69946
G01 X0.66142 Y-0.69291
G01 X0.66073 Y-0.68636
G01 X0.65869 Y-0.68010
G01 X0.65540 Y-0.67440
G01 X0.65100 Y-0.66951
G01 X0.64567 Y-0.66564
G01 X0.63965 Y-0.66296
G01 X0.63321 Y-0.66159
G01 X0.62663 Y-0.66159
G01 X0.62019 Y-0.66296
G01 X0.61583 Y-0.66490
G01 X0.53346 Y-0.58254
G01 X0.53346 Y-0.24030
G01 X0.61583 Y-0.15793
G01 X0.62019 Y-0.15987
G01 X0.62663 Y-0.16124
G01 X0.63321 Y-0.16124
G01 X0.63965 Y-0.15987
G01 X0.64567 Y-0.15720
G01 X0.65100 Y-0.15333
G01 X0.65540 Y-0.14843
G01 X0.65869 Y-0.14273
G01 X0.66073 Y-0.13647
G01 X0.66142 Y-0.12992
G01 X0.66073 Y-0.12337
G01 X0.65869 Y-0.11711
G01 X0.65540 Y-0.11141
G01 X0.65100 Y-0.10651
G01 X0.64567 Y-0.10264
G01 X0.63965 Y-0.09997
G01 X0.63321 Y-0.09860
G01 X0.62663 Y-0.09860
G01 X0.62019 Y-0.09997
G01 X0.61417 Y-0.10264
G01 X0.60885 Y-0.10651
G01 X0.60444 Y-0.11141
G01 X0.60115 Y-0.11711
G01 X0.60018 Y-0.12008
G01 X0.58946 Y-0.12008
G01 X0.54116 Y-0.07178
G01 X0.53796 Y-0.06965
G01 X0.53420 Y-0.06890
G01 X0.17323 Y-0.06890
G01 X0.16946 Y-0.06965
G01 X0.16627 Y-0.07178
G01 X0.06784 Y-0.17020
G01 X0.06571 Y-0.17340
G01 X0.06496 Y-0.17716
G01 X0.06496 Y-0.36811
G04 P0 ( dwell for no time -- G64 should not smooth over this point )
G00 Z0.03937 ( retract )

G00 X0.15961 Y-0.25786 ( rapid move to begin. )
G01 F0.98425
G01 Z-0.00591
G04 P0 ( dwell for no time -- G64 should not smooth over this point )
G01 F1.96850
G01 X0.15961 Y-0.25786
G01 X0.16634 Y-0.26078
G01 X0.17200 Y-0.26489
G01 X0.17668 Y-0.27009
G01 X0.18018 Y-0.27615
G01 X0.18135 Y-0.27976
G01 X0.19857 Y-0.27976
G01 X0.20084 Y-0.27546
G01 X0.19539 Y-0.26229
G01 X0.18128 Y-0.24681
G01 X0.16378 Y-0.23859
G01 X0.15961 Y-0.24078
G01 X0.15961 Y-0.25786
G04 P0 ( dwell for no time -- G64 should not smooth over this point )
G00 Z0.03937 ( retract )

G00 X0.35598 Y-0.26621 ( rapid move to begin. )
G01 F0.98425
G01 Z-0.00591
G04 P0 ( dwell for no time -- G64 should not smooth over this point )
G01 F1.96850
G01 X0.35598 Y-0.26621
G01 X0.35598 Y-0.24602
G01 X0.35903 Y-0.23867
G01 X0.36466 Y-0.23304
G01 X0.37201 Y-0.23000
G01 X0.39416 Y-0.23000
G01 X0.39748 Y-0.23332
G01 X0.39748 Y-0.25000
G01 X0.37598 Y-0.25000
G01 X0.37598 Y-0.26953
G01 X0.35930 Y-0.26953
G01 X0.35598 Y-0.26621
G04 P0 ( dwell for no time -- G64 should not smooth over this point )
G00 Z0.03937 ( retract )

G00 X0.41732 Y-0.17898 ( rapid move to begin. )
G01 F0.98425
G01 Z-0.00591
G04 P0 ( dwell for no time -- G64 should not smooth over this point )
G01 F1.96850
G01 X0.41732 Y-0.17898
G01 X0.42529 Y-0.18185
G01 X0.44588 Y-0.18086
G01 X0.45865 Y-0.17557
G01 X0.46002 Y-0.17102
G01 X0.44701 Y-0.15800
G01 X0.44280 Y-0.15987
G01 X0.43636 Y-0.16124
G01 X0.42978 Y-0.16124
G01 X0.42334 Y-0.15987
G01 X0.41913 Y-0.15800
G01 X0.41732 Y-0.15981
G01 X0.41732 Y-0.17898
G04 P0 ( dwell for no time -- G64 should not smooth over this point )
G00 Z0.03937 ( retract )

G00 X0.41748 Y-0.25000 ( rapid move to begin. )
G01 F0.98425
G01 Z-0.00591
G04 P0 ( dwell for no time -- G64 should not smooth over this point )
G01 F1.96850
G01 X0.41748 Y-0.25000
G01 X0.43898 Y-0.25000
G01 X0.43898 Y-0.26953
G01 X0.45565 Y-0.26953
G01 X0.45898 Y-0.26621
G01 X0.45898 Y-0.24602
G01 X0.45593 Y-0.23867
G01 X0.45031 Y-0.23304
G01 X0.44295 Y-0.23000
G01 X0.42080 Y-0.23000
G01 X0.41748 Y-0.23332
G01 X0.41748 Y-0.25000
G04 P0 ( dwell for no time -- G64 should not smooth over this point )
G00 Z0.03937 ( retract )

G00 X0.56220 Y-0.35531 ( rapid move to begin. )
G01 F0.98425
G01 Z-0.00591
G04 P0 ( dwell for no time -- G64 should not smooth over this point )
G01 F1.96850
G01 X0.56220 Y-0.35531
G01 X0.56220 Y-0.26083
G01 X0.69921 Y-0.26083
G01 X0.69921 Y-0.26870
G01 X0.77798 Y-0.26870
G01 X0.83268 Y-0.21401
G01 X0.83268 Y-0.20275
G01 X0.84557 Y-0.20275
G01 X0.85203 Y-0.19947
G01 X0.85998 Y-0.19734
G01 X0.86820 Y-0.19690
G01 X0.87633 Y-0.19819
G01 X0.88401 Y-0.20114
G01 X0.88650 Y-0.20275
G01 X0.89961 Y-0.20275
G01 X0.89961 Y-0.21586
G01 X0.90122 Y-0.21835
G01 X0.90417 Y-0.22603
G01 X0.90546 Y-0.23416
G01 X0.90503 Y-0.24238
G01 X0.90290 Y-0.25033
G01 X0.89961 Y-0.25679
G01 X0.89961 Y-0.26969
G01 X0.88835 Y-0.26969
G01 X0.82213 Y-0.33591
G01 X0.81616 Y-0.34081
G01 X0.80936 Y-0.34444
G01 X0.80197 Y-0.34668
G01 X0.79429 Y-0.34744
G01 X0.69921 Y-0.34744
G01 X0.69921 Y-0.35531
G01 X0.56220 Y-0.35531
G04 P0 ( dwell for no time -- G64 should not smooth over this point )
G00 Z0.03937 ( retract )

G00 X0.56220 Y-0.49508 ( rapid move to begin. )
G01 F0.98425
G01 Z-0.00591
G04 P0 ( dwell for no time -- G64 should not smooth over this point )
G01 F1.96850
G01 X0.56220 Y-0.49508
G01 X0.56220 Y-0.40059
G01 X0.69921 Y-0.40059
G01 X0.69921 Y-0.44882
G01 X0.86614 Y-0.44882
G01 X0.87433 Y-0.44968
G01 X0.88215 Y-0.45222
G01 X0.88649 Y-0.45472
G01 X0.89961 Y-0.45472
G01 X0.89961 Y-0.46764
G01 X0.90358 Y-0.47602
G01 X0.90530 Y-0.48407
G01 X0.90530 Y-0.49230
G01 X0.90358 Y-0.50035
G01 X0.89961 Y-0.50874
G01 X0.89961 Y-0.52165
G01 X0.88649 Y-0.52165
G01 X0.88215 Y-0.52416
G01 X0.87433 Y-0.52670
G01 X0.86614 Y-0.52756
G01 X0.67106 Y-0.52756
G01 X0.66338 Y-0.52680
G01 X0.65600 Y-0.52456
G01 X0.64919 Y-0.52092
G01 X0.64322 Y-0.51603
G01 X0.62228 Y-0.49508
G01 X0.56220 Y-0.49508
G04 P0 ( dwell for no time -- G64 should not smooth over this point )
G00 Z0.03937 ( retract )

G00 X0.40612 Y-0.65182 ( rapid move to begin. )
G01 F0.98425
G01 Z-0.00591
G04 P0 ( dwell for no time -- G64 should not smooth over this point )
G01 F1.96850
G01 X0.40612 Y-0.65182
G01 X0.40749 Y-0.64726
G01 X0.42026 Y-0.64197
G01 X0.44085 Y-0.64099
G01 X0.45869 Y-0.64740
G01 X0.46002 Y-0.65182
G01 X0.44701 Y-0.66483
G01 X0.44280 Y-0.66296
G01 X0.43636 Y-0.66159
G01 X0.42978 Y-0.66159
G01 X0.42334 Y-0.66296
G01 X0.41913 Y-0.66483
G01 X0.40612 Y-0.65182
G04 P0 ( dwell for no time -- G64 should not smooth over this point )
G00 Z0.03937 ( retract )

G00 X0.38115 Y-0.68513 ( rapid move to begin. )
G01 F0.98425
G01 Z-0.00591
G04 P0 ( dwell for no time -- G64 should not smooth over this point )
G01 F1.96850
G01 X0.38115 Y-0.68513
G01 X0.38213 Y-0.70572
G01 X0.38742 Y-0.71849
G01 X0.39197 Y-0.71987
G01 X0.40496 Y-0.70688
G01 X0.40226 Y-0.69946
G01 X0.40157 Y-0.69291
G01 X0.40226 Y-0.68636
G01 X0.40496 Y-0.67895
G01 X0.39197 Y-0.66596
G01 X0.38756 Y-0.66729
G01 X0.38115 Y-0.68513
G04 P0 ( dwell for no time -- G64 should not smooth over this point )
G00 Z0.03937 ( retract )

G00 X0.40612 Y-0.73401 ( rapid move to begin. )
G01 F0.98425
G01 Z-0.00591
G04 P0 ( dwell for no time -- G64 should not smooth over this point )
G01 F1.96850
G01 X0.40612 Y-0.73401
G01 X0.40745 Y-0.73842
G01 X0.42323 Y-0.74410
G01 X0.42323 Y-0.72282
G01 X0.41913 Y-0.72100
G01 X0.40612 Y-0.73401
G04 P0 ( dwell for no time -- G64 should not smooth over this point )
G00 Z0.03937 ( retract )

G00 X0.44291 Y-0.74400 ( rapid move to begin. )
G01 F0.98425
G01 Z-0.00591
G04 P0 ( dwell for no time -- G64 should not smooth over this point )
G01 F1.96850
G01 X0.44291 Y-0.74400
G01 X0.44291 Y-0.72282
G01 X0.44701 Y-0.72099
G01 X0.46002 Y-0.73401
G01 X0.45865 Y-0.73857
G01 X0.44588 Y-0.74386
G01 X0.44291 Y-0.74400
G04 P0 ( dwell for no time -- G64 should not smooth over this point )
G00 Z0.03937 ( retract )

G00 X0.35598 Y-0.82526 ( rapid move to begin. )
G01 F0.98425
G01 Z-0.00591
G04 P0 ( dwell for no time -- G64 should not smooth over this point )
G01 F1.96850
G01 X0.35598 Y-0.82526
G01 X0.35930 Y-0.82858
G01 X0.37598 Y-0.82858
G01 X0.37598 Y-0.80905
G01 X0.39748 Y-0.80905
G01 X0.39748 Y-0.79238
G01 X0.39416 Y-0.78905
G01 X0.37200 Y-0.78905
G01 X0.36466 Y-0.79210
G01 X0.35903 Y-0.79773
G01 X0.35598 Y-0.80508
G01 X0.35598 Y-0.82526
G04 P0 ( dwell for no time -- G64 should not smooth over this point )
G00 Z0.03937 ( retract )

G00 X0.41748 Y-0.80905 ( rapid move to begin. )
G01 F0.98425
G01 Z-0.00591
G04 P0 ( dwell for no time -- G64 should not smooth over this point )
G01 F1.96850
G01 X0.41748 Y-0.80905
G01 X0.42323 Y-0.80892
G01 X0.42323 Y-0.78905
G01 X0.42080 Y-0.78905
G01 X0.41748 Y-0.79238
G01 X0.41748 Y-0.80905
G04 P0 ( dwell for no time -- G64 should not smooth over this point )
G00 Z0.03937 ( retract )

G00 X0.56220 Y-0.91437 ( rapid move to begin. )
G01 F0.98425
G01 Z-0.00591
G04 P0 ( dwell for no time -- G64 should not smooth over this point )
G01 F1.96850
G01 X0.56220 Y-0.91437
G01 X0.56220 Y-0.81988
G01 X0.62228 Y-0.81988
G01 X0.66685 Y-0.77531
G01 X0.67281 Y-0.77041
G01 X0.67962 Y-0.76678
G01 X0.68700 Y-0.76454
G01 X0.69468 Y-0.76378
G01 X0.86614 Y-0.76378
G01 X0.87433 Y-0.76464
G01 X0.88215 Y-0.76718
G01 X0.88649 Y-0.76968
G01 X0.89961 Y-0.76968
G01 X0.89961 Y-0.78260
G01 X0.90358 Y-0.79098
G01 X0.90530 Y-0.79903
G01 X0.90530 Y-0.80726
G01 X0.90358 Y-0.81532
G01 X0.89961 Y-0.82370
G01 X0.89961 Y-0.83661
G01 X0.88649 Y-0.83661
G01 X0.88215 Y-0.83912
G01 X0.87433 Y-0.84166
G01 X0.86614 Y-0.84252
G01 X0.71099 Y-0.84252
G01 X0.69921 Y-0.85430
G01 X0.69921 Y-0.91437
G01 X0.56220 Y-0.91437
G04 P0 ( dwell for no time -- G64 should not smooth over this point )
G00 Z0.03937 ( retract )

G00 X0.56220 Y-1.05413 ( rapid move to begin. )
G01 F0.98425
G01 Z-0.00591
G04 P0 ( dwell for no time -- G64 should not smooth over this point )
G01 F1.96850
G01 X0.56220 Y-1.05413
G01 X0.56220 Y-0.95964
G01 X0.69921 Y-0.95964
G01 X0.69921 Y-0.96752
G01 X0.78248 Y-0.96752
G01 X0.79016 Y-0.96828
G01 X0.79755 Y-0.97052
G01 X0.80435 Y-0.97415
G01 X0.81032 Y-0.97905
G01 X0.88442 Y-1.05315
G01 X0.89567 Y-1.05315
G01 X0.89567 Y-1.06605
G01 X0.89896 Y-1.07251
G01 X0.90109 Y-1.08045
G01 X0.90152 Y-1.08867
G01 X0.90023 Y-1.09680
G01 X0.89728 Y-1.10449
G01 X0.89567 Y-1.10697
G01 X0.89567 Y-1.12008
G01 X0.88256 Y-1.12008
G01 X0.88008 Y-1.12169
G01 X0.87239 Y-1.12464
G01 X0.86426 Y-1.12593
G01 X0.85604 Y-1.12550
G01 X0.84810 Y-1.12337
G01 X0.84164 Y-1.12008
G01 X0.82874 Y-1.12008
G01 X0.82874 Y-1.10883
G01 X0.76617 Y-1.04626
G01 X0.69921 Y-1.04626
G01 X0.69921 Y-1.05413
G01 X0.56220 Y-1.05413
G04 P0 ( dwell for no time -- G64 should not smooth over this point )
G00 Z0.03937 ( retract )

G00 X0.37598 Y-1.06496 ( rapid move to begin. )
G01 F0.98425
G01 Z-0.00591
G04 P0 ( dwell for no time -- G64 should not smooth over this point )
G01 F1.96850
G01 X0.37598 Y-1.06496
G01 X0.37598 Y-1.00591
G01 X0.43898 Y-1.00591
G01 X0.43898 Y-1.06496
G01 X0.37598 Y-1.06496
G04 P0 ( dwell for no time -- G64 should not smooth over this point )
G00 Z0.03937 ( retract )

G00 X0.11614 Y-0.86417 ( rapid move to begin. )
G01 F0.98425
G01 Z-0.00591
G04 P0 ( dwell for no time -- G64 should not smooth over this point )
G01 F1.96850
G01 X0.11614 Y-0.86417
G01 X0.11614 Y-0.79724
G01 X0.18307 Y-0.79724
G01 X0.18307 Y-0.86417
G01 X0.15945 Y-0.86417
G01 X0.15945 Y-0.87978
G01 X0.25408 Y-0.97441
G01 X0.43898 Y-0.97441
G01 X0.43898 Y-0.99409
G01 X0.25000 Y-0.99409
G01 X0.24623 Y-0.99335
G01 X0.24304 Y-0.99121
G01 X0.14265 Y-0.89082
G01 X0.13995 Y-0.88578
G01 X0.13976 Y-0.86417
G01 X0.11614 Y-0.86417
G04 P0 ( dwell for no time -- G64 should not smooth over this point )
G00 Z0.03937 ( retract )

G00 X0.03937 Y-0.91929 ( rapid move to begin. )
G01 F0.98425
G01 Z-0.00591
G04 P0 ( dwell for no time -- G64 should not smooth over this point )
G01 F1.96850
G01 X0.03937 Y-0.91929
G01 X0.04012 Y-0.92306
G01 X0.04225 Y-0.92625
G01 X0.26076 Y-1.14475
G01 X0.26395 Y-1.14689
G01 X0.26772 Y-1.14764
G01 X0.49798 Y-1.14745
G01 X0.50302 Y-1.14475
G01 X0.52787 Y-1.11964
G01 X0.52953 Y-1.11417
G01 X0.52934 Y-0.97010
G01 X0.52664 Y-0.96506
G01 X0.47588 Y-0.91430
G01 X0.47269 Y-0.91217
G01 X0.46892 Y-0.91142
G01 X0.37598 Y-0.91142
G01 X0.37598 Y-0.93110
G01 X0.46485 Y-0.93110
G01 X0.50984 Y-0.97610
G01 X0.50984 Y-1.11010
G01 X0.49199 Y-1.12795
G01 X0.27179 Y-1.12795
G01 X0.05905 Y-0.91521
G01 X0.05905 Y-0.63518
G01 X0.13403 Y-0.56020
G01 X0.13926 Y-0.56254
G01 X0.14611 Y-0.56399
G01 X0.15310 Y-0.56399
G01 X0.15995 Y-0.56254
G01 X0.16634 Y-0.55969
G01 X0.17200 Y-0.55558
G01 X0.17668 Y-0.55038
G01 X0.18018 Y-0.54432
G01 X0.18234 Y-0.53767
G01 X0.18307 Y-0.53071
G01 X0.18234 Y-0.52375
G01 X0.17906 Y-0.51517
G01 X0.32219 Y-0.37205
G01 X0.43898 Y-0.37205
G01 X0.43898 Y-0.35236
G01 X0.31811 Y-0.35236
G01 X0.31264 Y-0.35402
G01 X0.16518 Y-0.50121
G01 X0.15995 Y-0.49888
G01 X0.15310 Y-0.49743
G01 X0.14611 Y-0.49743
G01 X0.13926 Y-0.49888
G01 X0.13287 Y-0.50173
G01 X0.12721 Y-0.50584
G01 X0.12253 Y-0.51104
G01 X0.11903 Y-0.51710
G01 X0.11687 Y-0.52375
G01 X0.11614 Y-0.53071
G01 X0.11687 Y-0.53767
G01 X0.12015 Y-0.54625
G01 X0.04103 Y-0.62563
G01 X0.03937 Y-0.63110
G01 X0.03937 Y-0.91929
G04 P0 ( dwell for no time -- G64 should not smooth over this point )
G00 Z0.03937 ( retract )

G00 X0.06890 Y-0.87401 ( rapid move to begin. )
G01 F0.98425
G01 Z-0.00591
G04 P0 ( dwell for no time -- G64 should not smooth over this point )
G01 F1.96850
G01 X0.06890 Y-0.87401
G01 X0.06965 Y-0.87778
G01 X0.07178 Y-0.88097
G01 X0.30406 Y-1.11326
G01 X0.30726 Y-1.11539
G01 X0.31102 Y-1.11614
G01 X0.45861 Y-1.11595
G01 X0.46365 Y-1.11326
G01 X0.48850 Y-1.08814
G01 X0.49016 Y-1.08268
G01 X0.48997 Y-0.97249
G01 X0.48727 Y-0.96745
G01 X0.46413 Y-0.94457
G01 X0.45866 Y-0.94291
G01 X0.37598 Y-0.94291
G01 X0.37598 Y-0.96260
G01 X0.45458 Y-0.96260
G01 X0.47047 Y-0.97849
G01 X0.47047 Y-1.07860
G01 X0.45262 Y-1.09646
G01 X0.31510 Y-1.09646
G01 X0.08858 Y-0.86994
G01 X0.08858 Y-0.70565
G01 X0.13403 Y-0.66020
G01 X0.13926 Y-0.66253
G01 X0.14611 Y-0.66399
G01 X0.15310 Y-0.66399
G01 X0.15995 Y-0.66253
G01 X0.16634 Y-0.65969
G01 X0.17200 Y-0.65558
G01 X0.17668 Y-0.65038
G01 X0.18018 Y-0.64432
G01 X0.18234 Y-0.63767
G01 X0.18307 Y-0.63071
G01 X0.18234 Y-0.62375
G01 X0.17906 Y-0.61517
G01 X0.28771 Y-0.50626
G01 X0.28937 Y-0.50079
G01 X0.28937 Y-0.44896
G01 X0.33478 Y-0.40354
G01 X0.43898 Y-0.40354
G01 X0.43898 Y-0.38386
G01 X0.33071 Y-0.38386
G01 X0.32524 Y-0.38552
G01 X0.27257 Y-0.43792
G01 X0.27043 Y-0.44111
G01 X0.26969 Y-0.44488
G01 X0.26969 Y-0.49671
G01 X0.16518 Y-0.60121
G01 X0.15995 Y-0.59888
G01 X0.15310 Y-0.59743
G01 X0.14611 Y-0.59743
G01 X0.13926 Y-0.59888
G01 X0.13287 Y-0.60173
G01 X0.12721 Y-0.60584
G01 X0.12253 Y-0.61104
G01 X0.11903 Y-0.61710
G01 X0.11687 Y-0.62375
G01 X0.11614 Y-0.63071
G01 X0.11687 Y-0.63767
G01 X0.12015 Y-0.64625
G01 X0.07178 Y-0.69461
G01 X0.06909 Y-0.69965
G01 X0.06890 Y-0.87401
G04 P0 ( dwell for no time -- G64 should not smooth over this point )
G00 Z0.03937 ( retract )

G00 X0.11614 Y-0.73071 ( rapid move to begin. )
G01 F0.98425
G01 Z-0.00591
G04 P0 ( dwell for no time -- G64 should not smooth over this point )
G01 F1.96850
G01 X0.11614 Y-0.73071
G01 X0.11687 Y-0.73767
G01 X0.11903 Y-0.74432
G01 X0.12253 Y-0.75038
G01 X0.12721 Y-0.75558
G01 X0.13287 Y-0.75969
G01 X0.13926 Y-0.76253
G01 X0.14611 Y-0.76399
G01 X0.15310 Y-0.76399
G01 X0.15995 Y-0.76253
G01 X0.16634 Y-0.75969
G01 X0.17200 Y-0.75558
G01 X0.17668 Y-0.75038
G01 X0.18018 Y-0.74432
G01 X0.18234 Y-0.73767
G01 X0.18307 Y-0.73071
G01 X0.18234 Y-0.72375
G01 X0.17906 Y-0.71517
G01 X0.32314 Y-0.57082
G01 X0.32480 Y-0.56535
G01 X0.32480 Y-0.47061
G01 X0.36038 Y-0.43504
G01 X0.43898 Y-0.43504
G01 X0.43898 Y-0.41535
G01 X0.35630 Y-0.41535
G01 X0.35253 Y-0.41610
G01 X0.34934 Y-0.41824
G01 X0.30800 Y-0.45958
G01 X0.30587 Y-0.46277
G01 X0.30512 Y-0.46653
G01 X0.30512 Y-0.56128
G01 X0.16518 Y-0.70121
G01 X0.15995 Y-0.69888
G01 X0.15310 Y-0.69743
G01 X0.14611 Y-0.69743
G01 X0.13926 Y-0.69888
G01 X0.13287 Y-0.70173
G01 X0.12721 Y-0.70584
G01 X0.12253 Y-0.71104
G01 X0.11903 Y-0.71710
G01 X0.11687 Y-0.72375
G01 X0.11614 Y-0.73071
G04 P0 ( dwell for no time -- G64 should not smooth over this point )
G00 Z0.03937 ( retract )

G00 X0.37598 Y-0.50591 ( rapid move to begin. )
G01 F0.98425
G01 Z-0.00591
G04 P0 ( dwell for no time -- G64 should not smooth over this point )
G01 F1.96850
G01 X0.37598 Y-0.50591
G01 X0.37598 Y-0.44685
G01 X0.43898 Y-0.44685
G01 X0.43898 Y-0.50591
G01 X0.37598 Y-0.50591

G04 P0 ( dwell for no time -- G64 should not smooth over this point )
G00 Z0.394 ( retract )

M5 ( Spindle off. )
G04 P1.000000
M9 ( Coolant off. )
M2 ( Program end. )

