( pcb2gcode 2.0.0 )
( Software-independent Gcode )
( This file uses a mill head of 0.03150inch to drill the 2 hole sizes. )
( Hole sizes: [0.0315 inch] [0.0394 inch] )

G94       (Inches per minute feed rate.)
G20       (Units == INCHES.)
G91.1     (Incremental arc distance mode.)
G90       (Absolute coordinates.)
S1000    (RPM spindle speed.)
G01 F1.18110 (Feedrate)
M3        (Spindle on clockwise.)
G04 P1.00000
G00 Z0.03937

G0 X0.43310 Y-0.12990
G1 Z-0.09843 F0.59055
G0 Z0.03937

G0 X0.62990 Y-0.12990
G1 Z-0.09843 F0.59055
G0 Z0.03937

G0 X0.43310 Y-0.69290
G1 Z-0.09843 F0.59055
G0 Z0.03937

G0 X0.62990 Y-0.69290
G1 Z-0.09843 F0.59055
G0 Z0.03937

G0 X0.15355 Y-0.28980
G1 Z0.09843 F0.59055
F1.18110
G2 X0.15355 Y-0.28980 Z-0.00000 I-0.00395 J0.00000
G2 X0.15355 Y-0.28980 Z-0.09843 I-0.00395 J0.00000
G2 X0.15355 Y-0.28980 I-0.00395 J0.00000
G0 Z0.03937

G0 X0.15355 Y-0.38980
G1 Z0.09843 F0.59055
F1.18110
G2 X0.15355 Y-0.38980 Z-0.00000 I-0.00395 J0.00000
G2 X0.15355 Y-0.38980 Z-0.09843 I-0.00395 J0.00000
G2 X0.15355 Y-0.38980 I-0.00395 J0.00000
G0 Z0.03937

G0 X0.15355 Y-0.53070
G1 Z0.09843 F0.59055
F1.18110
G2 X0.15355 Y-0.53070 Z-0.00000 I-0.00395 J0.00000
G2 X0.15355 Y-0.53070 Z-0.09843 I-0.00395 J0.00000
G2 X0.15355 Y-0.53070 I-0.00395 J0.00000
G0 Z0.03937

G0 X0.15355 Y-0.63070
G1 Z0.09843 F0.59055
F1.18110
G2 X0.15355 Y-0.63070 Z-0.00000 I-0.00395 J0.00000
G2 X0.15355 Y-0.63070 Z-0.09843 I-0.00395 J0.00000
G2 X0.15355 Y-0.63070 I-0.00395 J0.00000
G0 Z0.03937

G0 X0.15355 Y-0.73070
G1 Z0.09843 F0.59055
F1.18110
G2 X0.15355 Y-0.73070 Z-0.00000 I-0.00395 J0.00000
G2 X0.15355 Y-0.73070 Z-0.09843 I-0.00395 J0.00000
G2 X0.15355 Y-0.73070 I-0.00395 J0.00000
G0 Z0.03937

G0 X0.15355 Y-0.83070
G1 Z0.09843 F0.59055
F1.18110
G2 X0.15355 Y-0.83070 Z-0.00000 I-0.00395 J0.00000
G2 X0.15355 Y-0.83070 Z-0.09843 I-0.00395 J0.00000
G2 X0.15355 Y-0.83070 I-0.00395 J0.00000
G0 Z0.03937

G0 X0.86615 Y-1.08660
G1 Z0.09843 F0.59055
F1.18110
G2 X0.86615 Y-1.08660 Z-0.00000 I-0.00395 J0.00000
G2 X0.86615 Y-1.08660 Z-0.09843 I-0.00395 J0.00000
G2 X0.86615 Y-1.08660 I-0.00395 J0.00000
G0 Z0.03937

G0 X0.87005 Y-0.80310
G1 Z0.09843 F0.59055
F1.18110
G2 X0.87005 Y-0.80310 Z-0.00000 I-0.00395 J0.00000
G2 X0.87005 Y-0.80310 Z-0.09843 I-0.00395 J0.00000
G2 X0.87005 Y-0.80310 I-0.00395 J0.00000
G0 Z0.03937

G0 X0.87005 Y-0.48820
G1 Z0.09843 F0.59055
F1.18110
G2 X0.87005 Y-0.48820 Z-0.00000 I-0.00395 J0.00000
G2 X0.87005 Y-0.48820 Z-0.09843 I-0.00395 J0.00000
G2 X0.87005 Y-0.48820 I-0.00395 J0.00000
G0 Z0.03937

G0 X0.87005 Y-0.23620
G1 Z0.09843 F0.59055
F1.18110
G2 X0.87005 Y-0.23620 Z-0.00000 I-0.00395 J0.00000
G2 X0.87005 Y-0.23620 Z-0.09843 I-0.00395 J0.00000
G2 X0.87005 Y-0.23620 I-0.00395 J0.00000
G0 Z0.03937

G00 Z0.394 ( All done -- retract )

M5      (Spindle off.)
G04 P1.000000
M9      (Coolant off.)
M2      (Program end.)

