( pcb2gcode 2.0.0 )
( Software-independent Gcode )

G94 ( Inches per minute feed rate. )
G20 ( Units == INCHES. )

G90 ( Absolute coordinates. )
G00 S1000 ( RPM spindle speed. )
G64 P0.00040 ( set maximum deviation from commanded toolpath )
G01 F1.18110 ( Feedrate. )


G00 Z0.39370 (Retract to tool change height)
T0
M5      (Spindle stop.)
G04 P1.00000 (Wait for spindle to stop)
(MSG, Change tool bit to cutter diameter 0.03150in)
M6      (Tool change.)
M0      (Temporary machine stop.)
M3 ( Spindle on clockwise. )
G04 P1.00000 (Wait for spindle to get up to speed)
G04 P0 ( dwell for no time -- G64 should not smooth over this point )
G00 Z0.03937 ( retract )

G00 X-0.01575 Y-1.22047 ( rapid move to begin. )
G01 Z-0.09843 F0.59055 ( plunge. )
G04 P0 ( dwell for no time -- G64 should not smooth over this point )
G01 F1.18110
G01 X-0.01575 Y-0.62992
G00 Z0.03937
G01 X-0.01575 Y-0.59055
G01 Z-0.09843 F0.59055
G01 F1.18110
G01 X-0.01575 Y0.00000
G01 X-0.01455 Y0.00603
G01 X-0.01309 Y0.00875
G01 X-0.00875 Y0.01309
G01 X-0.00603 Y0.01455
G01 X0.00000 Y0.01575
G01 X0.46260 Y0.01575
G00 Z0.03937
G01 X0.50197 Y0.01575
G01 Z-0.09843 F0.59055
G01 F1.18110
G01 X0.96457 Y0.01575
G01 X0.96764 Y0.01545
G01 X0.97332 Y0.01309
G01 X0.97766 Y0.00875
G01 X0.97912 Y0.00603
G01 X0.98031 Y0.00000
G01 X0.98031 Y-0.59055
G00 Z0.03937
G01 X0.98031 Y-0.62992
G01 Z-0.09843 F0.59055
G01 F1.18110
G01 X0.98031 Y-1.22047
G01 X0.97912 Y-1.22650
G01 X0.97766 Y-1.22922
G01 X0.97332 Y-1.23357
G01 X0.96764 Y-1.23592
G01 X0.96457 Y-1.23622
G01 X0.50197 Y-1.23622
G00 Z0.03937
G01 X0.46260 Y-1.23622
G01 Z-0.09843 F0.59055
G01 F1.18110
G01 X0.00000 Y-1.23622
G01 X-0.00603 Y-1.23502
G01 X-0.01114 Y-1.23161
G01 X-0.01455 Y-1.22650
G01 X-0.01575 Y-1.22047

G04 P0 ( dwell for no time -- G64 should not smooth over this point )
G00 Z0.394 ( retract )

M5 ( Spindle off. )
G04 P1.000000
M9 ( Coolant off. )
M2 ( Program end. )

