( pcb2gcode 2.0.0 )
( Software-independent Gcode )

G94 ( Inches per minute feed rate. )
G20 ( Units == INCHES. )

G90 ( Absolute coordinates. )
G00 S1000 ( RPM spindle speed. )
G64 P0.00040 ( set maximum deviation from commanded toolpath )
G01 F7.87402 ( Feedrate. )


G00 Z0.39370 (Retract to tool change height)
T0
M5      (Spindle stop.)
G04 P1.00000 (Wait for spindle to stop)
(MSG, Change tool bit to mill diameter 0.00787in)
M6      (Tool change.)
M0      (Temporary machine stop.)
M3 ( Spindle on clockwise. )
G04 P1.00000 (Wait for spindle to get up to speed)
G04 P0 ( dwell for no time -- G64 should not smooth over this point )
G00 Z0.07874 ( retract )

G00 X-0.06886 Y-0.12257 ( rapid move to begin. )
G01 F3.93701
G01 Z-0.01181
G04 P0 ( dwell for no time -- G64 should not smooth over this point )
G01 F7.87402
G01 X-0.06886 Y-0.12257
G01 X-0.06893 Y-0.11288
G01 X-0.07090 Y-0.10339
G01 X-0.07468 Y-0.09446
G01 X-0.08013 Y-0.08644
G01 X-0.08704 Y-0.07964
G01 X-0.09514 Y-0.07432
G01 X-0.10412 Y-0.07068
G01 X-0.11365 Y-0.06886
G01 X-0.12334 Y-0.06893
G01 X-0.13283 Y-0.07090
G01 X-0.14176 Y-0.07468
G01 X-0.14978 Y-0.08013
G01 X-0.15658 Y-0.08704
G01 X-0.16190 Y-0.09514
G01 X-0.16554 Y-0.10412
G01 X-0.16736 Y-0.11365
G01 X-0.16729 Y-0.12334
G01 X-0.16532 Y-0.13283
G01 X-0.16154 Y-0.14176
G01 X-0.15609 Y-0.14978
G01 X-0.14918 Y-0.15658
G01 X-0.14108 Y-0.16190
G01 X-0.13210 Y-0.16554
G01 X-0.12257 Y-0.16736
G01 X-0.11288 Y-0.16729
G01 X-0.10339 Y-0.16532
G01 X-0.09446 Y-0.16154
G01 X-0.08644 Y-0.15609
G01 X-0.07964 Y-0.14918
G01 X-0.07432 Y-0.14108
G01 X-0.07068 Y-0.13210
G01 X-0.06886 Y-0.12257
G04 P0 ( dwell for no time -- G64 should not smooth over this point )
G00 Z0.07874 ( retract )

G00 X-0.32969 Y-0.28567 ( rapid move to begin. )
G01 F3.93701
G01 Z-0.01181
G04 P0 ( dwell for no time -- G64 should not smooth over this point )
G01 F7.87402
G01 X-0.32969 Y-0.28567
G01 X-0.32969 Y-0.25803
G01 X-0.33035 Y-0.25584
G01 X-0.33211 Y-0.25439
G01 X-0.39866 Y-0.25409
G01 X-0.40085 Y-0.25476
G01 X-0.40230 Y-0.25652
G01 X-0.40260 Y-0.28567
G01 X-0.40193 Y-0.28786
G01 X-0.40017 Y-0.28931
G01 X-0.33362 Y-0.28961
G01 X-0.33084 Y-0.28845
G01 X-0.32969 Y-0.28567
G04 P0 ( dwell for no time -- G64 should not smooth over this point )
G00 Z0.07874 ( retract )

G00 X-0.32969 Y-0.23567 ( rapid move to begin. )
G01 F3.93701
G01 Z-0.01181
G04 P0 ( dwell for no time -- G64 should not smooth over this point )
G01 F7.87402
G01 X-0.32969 Y-0.23567
G01 X-0.32969 Y-0.20803
G01 X-0.33035 Y-0.20584
G01 X-0.33211 Y-0.20439
G01 X-0.39866 Y-0.20409
G01 X-0.40085 Y-0.20476
G01 X-0.40230 Y-0.20652
G01 X-0.40260 Y-0.23567
G01 X-0.40193 Y-0.23786
G01 X-0.40017 Y-0.23931
G01 X-0.33362 Y-0.23961
G01 X-0.33084 Y-0.23845
G01 X-0.32969 Y-0.23567
G04 P0 ( dwell for no time -- G64 should not smooth over this point )
G00 Z0.07874 ( retract )

G00 X-0.32969 Y-0.18567 ( rapid move to begin. )
G01 F3.93701
G01 Z-0.01181
G04 P0 ( dwell for no time -- G64 should not smooth over this point )
G01 F7.87402
G01 X-0.32969 Y-0.18567
G01 X-0.32969 Y-0.15803
G01 X-0.33035 Y-0.15584
G01 X-0.33211 Y-0.15439
G01 X-0.39866 Y-0.15409
G01 X-0.40085 Y-0.15476
G01 X-0.40230 Y-0.15652
G01 X-0.40260 Y-0.18567
G01 X-0.40193 Y-0.18786
G01 X-0.40017 Y-0.18931
G01 X-0.33362 Y-0.18961
G01 X-0.33084 Y-0.18845
G01 X-0.32969 Y-0.18567
G04 P0 ( dwell for no time -- G64 should not smooth over this point )
G00 Z0.07874 ( retract )

G00 X-0.32969 Y-0.13567 ( rapid move to begin. )
G01 F3.93701
G01 Z-0.01181
G04 P0 ( dwell for no time -- G64 should not smooth over this point )
G01 F7.87402
G01 X-0.32969 Y-0.13567
G01 X-0.32969 Y-0.10803
G01 X-0.33035 Y-0.10584
G01 X-0.33211 Y-0.10439
G01 X-0.39866 Y-0.10409
G01 X-0.40085 Y-0.10476
G01 X-0.40230 Y-0.10652
G01 X-0.40260 Y-0.13567
G01 X-0.40193 Y-0.13786
G01 X-0.40017 Y-0.13931
G01 X-0.33362 Y-0.13961
G01 X-0.33084 Y-0.13845
G01 X-0.32969 Y-0.13567
G04 P0 ( dwell for no time -- G64 should not smooth over this point )
G00 Z0.07874 ( retract )

G00 X-0.54228 Y-0.13567 ( rapid move to begin. )
G01 F3.93701
G01 Z-0.01181
G04 P0 ( dwell for no time -- G64 should not smooth over this point )
G01 F7.87402
G01 X-0.54228 Y-0.13567
G01 X-0.54344 Y-0.13845
G01 X-0.54622 Y-0.13961
G01 X-0.61277 Y-0.13931
G01 X-0.61453 Y-0.13786
G01 X-0.61520 Y-0.13567
G01 X-0.61490 Y-0.10652
G01 X-0.61345 Y-0.10476
G01 X-0.61126 Y-0.10409
G01 X-0.54471 Y-0.10439
G01 X-0.54295 Y-0.10584
G01 X-0.54228 Y-0.10803
G01 X-0.54228 Y-0.13567
G04 P0 ( dwell for no time -- G64 should not smooth over this point )
G00 Z0.07874 ( retract )

G00 X-0.54228 Y-0.18567 ( rapid move to begin. )
G01 F3.93701
G01 Z-0.01181
G04 P0 ( dwell for no time -- G64 should not smooth over this point )
G01 F7.87402
G01 X-0.54228 Y-0.18567
G01 X-0.54344 Y-0.18845
G01 X-0.54622 Y-0.18961
G01 X-0.61277 Y-0.18931
G01 X-0.61453 Y-0.18786
G01 X-0.61520 Y-0.18567
G01 X-0.61490 Y-0.15652
G01 X-0.61345 Y-0.15476
G01 X-0.61126 Y-0.15409
G01 X-0.54471 Y-0.15439
G01 X-0.54295 Y-0.15584
G01 X-0.54228 Y-0.15803
G01 X-0.54228 Y-0.18567
G04 P0 ( dwell for no time -- G64 should not smooth over this point )
G00 Z0.07874 ( retract )

G00 X-0.54228 Y-0.23567 ( rapid move to begin. )
G01 F3.93701
G01 Z-0.01181
G04 P0 ( dwell for no time -- G64 should not smooth over this point )
G01 F7.87402
G01 X-0.54228 Y-0.23567
G01 X-0.54344 Y-0.23845
G01 X-0.54622 Y-0.23961
G01 X-0.61277 Y-0.23931
G01 X-0.61453 Y-0.23786
G01 X-0.61520 Y-0.23567
G01 X-0.61490 Y-0.20652
G01 X-0.61345 Y-0.20476
G01 X-0.61126 Y-0.20409
G01 X-0.54471 Y-0.20439
G01 X-0.54295 Y-0.20584
G01 X-0.54228 Y-0.20803
G01 X-0.54228 Y-0.23567
G04 P0 ( dwell for no time -- G64 should not smooth over this point )
G00 Z0.07874 ( retract )

G00 X-0.54228 Y-0.28567 ( rapid move to begin. )
G01 F3.93701
G01 Z-0.01181
G04 P0 ( dwell for no time -- G64 should not smooth over this point )
G01 F7.87402
G01 X-0.54228 Y-0.28567
G01 X-0.54344 Y-0.28845
G01 X-0.54622 Y-0.28961
G01 X-0.61277 Y-0.28931
G01 X-0.61453 Y-0.28786
G01 X-0.61520 Y-0.28567
G01 X-0.61490 Y-0.25652
G01 X-0.61345 Y-0.25476
G01 X-0.61126 Y-0.25409
G01 X-0.54471 Y-0.25439
G01 X-0.54295 Y-0.25584
G01 X-0.54228 Y-0.25803
G01 X-0.54228 Y-0.28567
G04 P0 ( dwell for no time -- G64 should not smooth over this point )
G00 Z0.07874 ( retract )

G00 X-0.68303 Y-0.33665 ( rapid move to begin. )
G01 F3.93701
G01 Z-0.01181
G04 P0 ( dwell for no time -- G64 should not smooth over this point )
G01 F7.87402
G01 X-0.68303 Y-0.33665
G01 X-0.68303 Y-0.21453
G01 X-0.68418 Y-0.21174
G01 X-0.68697 Y-0.21059
G01 X-0.80909 Y-0.21059
G01 X-0.81188 Y-0.21174
G01 X-0.81303 Y-0.21453
G01 X-0.81303 Y-0.33665
G01 X-0.81188 Y-0.33944
G01 X-0.80909 Y-0.34059
G01 X-0.68697 Y-0.34059
G01 X-0.68418 Y-0.33944
G01 X-0.68303 Y-0.33665
G04 P0 ( dwell for no time -- G64 should not smooth over this point )
G00 Z0.07874 ( retract )

G00 X-0.54035 Y-0.47539 ( rapid move to begin. )
G01 F3.93701
G01 Z-0.01181
G04 P0 ( dwell for no time -- G64 should not smooth over this point )
G01 F7.87402
G01 X-0.54035 Y-0.47539
G01 X-0.54035 Y-0.34350
G01 X-0.54102 Y-0.34132
G01 X-0.54278 Y-0.33987
G01 X-0.54429 Y-0.33957
G01 X-0.62106 Y-0.33957
G01 X-0.62325 Y-0.34023
G01 X-0.62434 Y-0.34132
G01 X-0.62500 Y-0.34350
G01 X-0.62500 Y-0.47539
G01 X-0.62434 Y-0.47758
G01 X-0.62325 Y-0.47867
G01 X-0.62106 Y-0.47933
G01 X-0.54429 Y-0.47933
G01 X-0.54151 Y-0.47818
G01 X-0.54035 Y-0.47539
G04 P0 ( dwell for no time -- G64 should not smooth over this point )
G00 Z0.07874 ( retract )

G00 X-0.54228 Y-0.62779 ( rapid move to begin. )
G01 F3.93701
G01 Z-0.01181
G04 P0 ( dwell for no time -- G64 should not smooth over this point )
G01 F7.87402
G01 X-0.54228 Y-0.62779
G01 X-0.54228 Y-0.60016
G01 X-0.54295 Y-0.59797
G01 X-0.54471 Y-0.59652
G01 X-0.61126 Y-0.59622
G01 X-0.61345 Y-0.59688
G01 X-0.61490 Y-0.59865
G01 X-0.61520 Y-0.62779
G01 X-0.61453 Y-0.62998
G01 X-0.61277 Y-0.63143
G01 X-0.54622 Y-0.63173
G01 X-0.54344 Y-0.63058
G01 X-0.54228 Y-0.62779
G04 P0 ( dwell for no time -- G64 should not smooth over this point )
G00 Z0.07874 ( retract )

G00 X-0.54228 Y-0.67780 ( rapid move to begin. )
G01 F3.93701
G01 Z-0.01181
G04 P0 ( dwell for no time -- G64 should not smooth over this point )
G01 F7.87402
G01 X-0.54228 Y-0.67780
G01 X-0.54228 Y-0.65016
G01 X-0.54295 Y-0.64797
G01 X-0.54471 Y-0.64652
G01 X-0.61126 Y-0.64622
G01 X-0.61345 Y-0.64688
G01 X-0.61490 Y-0.64865
G01 X-0.61520 Y-0.67780
G01 X-0.61453 Y-0.67998
G01 X-0.61277 Y-0.68143
G01 X-0.54622 Y-0.68173
G01 X-0.54344 Y-0.68058
G01 X-0.54228 Y-0.67780
G04 P0 ( dwell for no time -- G64 should not smooth over this point )
G00 Z0.07874 ( retract )

G00 X-0.54228 Y-0.72779 ( rapid move to begin. )
G01 F3.93701
G01 Z-0.01181
G04 P0 ( dwell for no time -- G64 should not smooth over this point )
G01 F7.87402
G01 X-0.54228 Y-0.72779
G01 X-0.54228 Y-0.70016
G01 X-0.54295 Y-0.69797
G01 X-0.54471 Y-0.69652
G01 X-0.61126 Y-0.69622
G01 X-0.61345 Y-0.69688
G01 X-0.61490 Y-0.69865
G01 X-0.61520 Y-0.72779
G01 X-0.61453 Y-0.72998
G01 X-0.61277 Y-0.73143
G01 X-0.54622 Y-0.73173
G01 X-0.54344 Y-0.73058
G01 X-0.54228 Y-0.72779
G04 P0 ( dwell for no time -- G64 should not smooth over this point )
G00 Z0.07874 ( retract )

G00 X-0.54228 Y-0.77780 ( rapid move to begin. )
G01 F3.93701
G01 Z-0.01181
G04 P0 ( dwell for no time -- G64 should not smooth over this point )
G01 F7.87402
G01 X-0.54228 Y-0.77780
G01 X-0.54228 Y-0.75016
G01 X-0.54295 Y-0.74797
G01 X-0.54471 Y-0.74652
G01 X-0.61126 Y-0.74622
G01 X-0.61345 Y-0.74688
G01 X-0.61490 Y-0.74865
G01 X-0.61520 Y-0.77780
G01 X-0.61453 Y-0.77998
G01 X-0.61277 Y-0.78143
G01 X-0.54622 Y-0.78173
G01 X-0.54344 Y-0.78058
G01 X-0.54228 Y-0.77780
G04 P0 ( dwell for no time -- G64 should not smooth over this point )
G00 Z0.07874 ( retract )

G00 X-0.67319 Y-0.82878 ( rapid move to begin. )
G01 F3.93701
G01 Z-0.01181
G04 P0 ( dwell for no time -- G64 should not smooth over this point )
G01 F7.87402
G01 X-0.67319 Y-0.82878
G01 X-0.67319 Y-0.70665
G01 X-0.67434 Y-0.70387
G01 X-0.67712 Y-0.70272
G01 X-0.79925 Y-0.70272
G01 X-0.80204 Y-0.70387
G01 X-0.80319 Y-0.70665
G01 X-0.80319 Y-0.82878
G01 X-0.80204 Y-0.83156
G01 X-0.79925 Y-0.83272
G01 X-0.67712 Y-0.83272
G01 X-0.67434 Y-0.83156
G01 X-0.67319 Y-0.82878
G04 P0 ( dwell for no time -- G64 should not smooth over this point )
G00 Z0.07874 ( retract )

G00 X-0.54035 Y-0.97146 ( rapid move to begin. )
G01 F3.93701
G01 Z-0.01181
G04 P0 ( dwell for no time -- G64 should not smooth over this point )
G01 F7.87402
G01 X-0.54035 Y-0.97146
G01 X-0.54035 Y-0.83957
G01 X-0.54102 Y-0.83738
G01 X-0.54278 Y-0.83593
G01 X-0.54429 Y-0.83563
G01 X-0.62106 Y-0.83563
G01 X-0.62325 Y-0.83629
G01 X-0.62434 Y-0.83738
G01 X-0.62500 Y-0.83957
G01 X-0.62500 Y-0.97146
G01 X-0.62434 Y-0.97364
G01 X-0.62325 Y-0.97473
G01 X-0.62106 Y-0.97539
G01 X-0.54429 Y-0.97539
G01 X-0.54151 Y-0.97424
G01 X-0.54035 Y-0.97146
G04 P0 ( dwell for no time -- G64 should not smooth over this point )
G00 Z0.07874 ( retract )

G00 X-0.54228 Y-1.11992 ( rapid move to begin. )
G01 F3.93701
G01 Z-0.01181
G04 P0 ( dwell for no time -- G64 should not smooth over this point )
G01 F7.87402
G01 X-0.54228 Y-1.11992
G01 X-0.54228 Y-1.09228
G01 X-0.54295 Y-1.09010
G01 X-0.54471 Y-1.08865
G01 X-0.61126 Y-1.08835
G01 X-0.61345 Y-1.08901
G01 X-0.61490 Y-1.09078
G01 X-0.61520 Y-1.11992
G01 X-0.61453 Y-1.12211
G01 X-0.61277 Y-1.12356
G01 X-0.54622 Y-1.12386
G01 X-0.54344 Y-1.12271
G01 X-0.54228 Y-1.11992
G04 P0 ( dwell for no time -- G64 should not smooth over this point )
G00 Z0.07874 ( retract )

G00 X-0.54228 Y-1.16992 ( rapid move to begin. )
G01 F3.93701
G01 Z-0.01181
G04 P0 ( dwell for no time -- G64 should not smooth over this point )
G01 F7.87402
G01 X-0.54228 Y-1.16992
G01 X-0.54228 Y-1.14228
G01 X-0.54295 Y-1.14010
G01 X-0.54471 Y-1.13865
G01 X-0.61126 Y-1.13835
G01 X-0.61345 Y-1.13901
G01 X-0.61490 Y-1.14078
G01 X-0.61520 Y-1.16992
G01 X-0.61453 Y-1.17211
G01 X-0.61277 Y-1.17356
G01 X-0.54622 Y-1.17386
G01 X-0.54344 Y-1.17271
G01 X-0.54228 Y-1.16992
G04 P0 ( dwell for no time -- G64 should not smooth over this point )
G00 Z0.07874 ( retract )

G00 X-0.54228 Y-1.21992 ( rapid move to begin. )
G01 F3.93701
G01 Z-0.01181
G04 P0 ( dwell for no time -- G64 should not smooth over this point )
G01 F7.87402
G01 X-0.54228 Y-1.21992
G01 X-0.54228 Y-1.19228
G01 X-0.54295 Y-1.19010
G01 X-0.54471 Y-1.18865
G01 X-0.61126 Y-1.18835
G01 X-0.61345 Y-1.18901
G01 X-0.61490 Y-1.19078
G01 X-0.61520 Y-1.21992
G01 X-0.61453 Y-1.22211
G01 X-0.61277 Y-1.22356
G01 X-0.54622 Y-1.22386
G01 X-0.54344 Y-1.22270
G01 X-0.54228 Y-1.21992
G04 P0 ( dwell for no time -- G64 should not smooth over this point )
G00 Z0.07874 ( retract )

G00 X-0.32969 Y-1.26992 ( rapid move to begin. )
G01 F3.93701
G01 Z-0.01181
G04 P0 ( dwell for no time -- G64 should not smooth over this point )
G01 F7.87402
G01 X-0.32969 Y-1.26992
G01 X-0.32969 Y-1.24228
G01 X-0.33035 Y-1.24010
G01 X-0.33211 Y-1.23865
G01 X-0.39866 Y-1.23835
G01 X-0.40085 Y-1.23901
G01 X-0.40230 Y-1.24078
G01 X-0.40260 Y-1.26992
G01 X-0.40193 Y-1.27211
G01 X-0.40017 Y-1.27356
G01 X-0.33362 Y-1.27386
G01 X-0.33084 Y-1.27270
G01 X-0.32969 Y-1.26992
G04 P0 ( dwell for no time -- G64 should not smooth over this point )
G00 Z0.07874 ( retract )

G00 X-0.32969 Y-1.21992 ( rapid move to begin. )
G01 F3.93701
G01 Z-0.01181
G04 P0 ( dwell for no time -- G64 should not smooth over this point )
G01 F7.87402
G01 X-0.32969 Y-1.21992
G01 X-0.32969 Y-1.19228
G01 X-0.33035 Y-1.19010
G01 X-0.33211 Y-1.18865
G01 X-0.39866 Y-1.18835
G01 X-0.40085 Y-1.18901
G01 X-0.40230 Y-1.19078
G01 X-0.40260 Y-1.21992
G01 X-0.40193 Y-1.22211
G01 X-0.40017 Y-1.22356
G01 X-0.33362 Y-1.22386
G01 X-0.33084 Y-1.22270
G01 X-0.32969 Y-1.21992
G04 P0 ( dwell for no time -- G64 should not smooth over this point )
G00 Z0.07874 ( retract )

G00 X-0.32969 Y-1.16992 ( rapid move to begin. )
G01 F3.93701
G01 Z-0.01181
G04 P0 ( dwell for no time -- G64 should not smooth over this point )
G01 F7.87402
G01 X-0.32969 Y-1.16992
G01 X-0.32969 Y-1.14228
G01 X-0.33035 Y-1.14010
G01 X-0.33211 Y-1.13865
G01 X-0.39866 Y-1.13835
G01 X-0.40085 Y-1.13901
G01 X-0.40230 Y-1.14078
G01 X-0.40260 Y-1.16992
G01 X-0.40193 Y-1.17211
G01 X-0.40017 Y-1.17356
G01 X-0.33362 Y-1.17386
G01 X-0.33084 Y-1.17271
G01 X-0.32969 Y-1.16992
G04 P0 ( dwell for no time -- G64 should not smooth over this point )
G00 Z0.07874 ( retract )

G00 X-0.32969 Y-1.11992 ( rapid move to begin. )
G01 F3.93701
G01 Z-0.01181
G04 P0 ( dwell for no time -- G64 should not smooth over this point )
G01 F7.87402
G01 X-0.32969 Y-1.11992
G01 X-0.32969 Y-1.09228
G01 X-0.33035 Y-1.09010
G01 X-0.33211 Y-1.08865
G01 X-0.39866 Y-1.08835
G01 X-0.40085 Y-1.08901
G01 X-0.40230 Y-1.09078
G01 X-0.40260 Y-1.11992
G01 X-0.40193 Y-1.12211
G01 X-0.40017 Y-1.12356
G01 X-0.33362 Y-1.12386
G01 X-0.33084 Y-1.12271
G01 X-0.32969 Y-1.11992
G04 P0 ( dwell for no time -- G64 should not smooth over this point )
G00 Z0.07874 ( retract )

G00 X-0.31988 Y-0.97146 ( rapid move to begin. )
G01 F3.93701
G01 Z-0.01181
G04 P0 ( dwell for no time -- G64 should not smooth over this point )
G01 F7.87402
G01 X-0.31988 Y-0.97146
G01 X-0.31988 Y-0.83957
G01 X-0.32055 Y-0.83738
G01 X-0.32163 Y-0.83629
G01 X-0.32382 Y-0.83563
G01 X-0.40059 Y-0.83563
G01 X-0.40278 Y-0.83629
G01 X-0.40386 Y-0.83738
G01 X-0.40453 Y-0.83957
G01 X-0.40453 Y-0.97146
G01 X-0.40386 Y-0.97364
G01 X-0.40210 Y-0.97509
G01 X-0.40059 Y-0.97539
G01 X-0.32382 Y-0.97539
G01 X-0.32104 Y-0.97424
G01 X-0.31988 Y-0.97146
G04 P0 ( dwell for no time -- G64 should not smooth over this point )
G00 Z0.07874 ( retract )

G00 X-0.32969 Y-0.77780 ( rapid move to begin. )
G01 F3.93701
G01 Z-0.01181
G04 P0 ( dwell for no time -- G64 should not smooth over this point )
G01 F7.87402
G01 X-0.32969 Y-0.77780
G01 X-0.32969 Y-0.75016
G01 X-0.33035 Y-0.74797
G01 X-0.33211 Y-0.74652
G01 X-0.39866 Y-0.74622
G01 X-0.40085 Y-0.74688
G01 X-0.40230 Y-0.74865
G01 X-0.40260 Y-0.77780
G01 X-0.40193 Y-0.77998
G01 X-0.40017 Y-0.78143
G01 X-0.33362 Y-0.78173
G01 X-0.33084 Y-0.78058
G01 X-0.32969 Y-0.77780
G04 P0 ( dwell for no time -- G64 should not smooth over this point )
G00 Z0.07874 ( retract )

G00 X-0.32969 Y-0.72779 ( rapid move to begin. )
G01 F3.93701
G01 Z-0.01181
G04 P0 ( dwell for no time -- G64 should not smooth over this point )
G01 F7.87402
G01 X-0.32969 Y-0.72779
G01 X-0.32969 Y-0.70016
G01 X-0.33035 Y-0.69797
G01 X-0.33211 Y-0.69652
G01 X-0.39866 Y-0.69622
G01 X-0.40085 Y-0.69688
G01 X-0.40230 Y-0.69865
G01 X-0.40260 Y-0.72779
G01 X-0.40193 Y-0.72998
G01 X-0.40017 Y-0.73143
G01 X-0.33362 Y-0.73173
G01 X-0.33084 Y-0.73058
G01 X-0.32969 Y-0.72779
G04 P0 ( dwell for no time -- G64 should not smooth over this point )
G00 Z0.07874 ( retract )

G00 X-0.32969 Y-0.67780 ( rapid move to begin. )
G01 F3.93701
G01 Z-0.01181
G04 P0 ( dwell for no time -- G64 should not smooth over this point )
G01 F7.87402
G01 X-0.32969 Y-0.67780
G01 X-0.32969 Y-0.65016
G01 X-0.33035 Y-0.64797
G01 X-0.33211 Y-0.64652
G01 X-0.39866 Y-0.64622
G01 X-0.40085 Y-0.64688
G01 X-0.40230 Y-0.64865
G01 X-0.40260 Y-0.67780
G01 X-0.40193 Y-0.67998
G01 X-0.40017 Y-0.68143
G01 X-0.33362 Y-0.68173
G01 X-0.33084 Y-0.68058
G01 X-0.32969 Y-0.67780
G04 P0 ( dwell for no time -- G64 should not smooth over this point )
G00 Z0.07874 ( retract )

G00 X-0.32969 Y-0.62779 ( rapid move to begin. )
G01 F3.93701
G01 Z-0.01181
G04 P0 ( dwell for no time -- G64 should not smooth over this point )
G01 F7.87402
G01 X-0.32969 Y-0.62779
G01 X-0.32969 Y-0.60016
G01 X-0.33035 Y-0.59797
G01 X-0.33211 Y-0.59652
G01 X-0.39866 Y-0.59622
G01 X-0.40085 Y-0.59688
G01 X-0.40230 Y-0.59865
G01 X-0.40260 Y-0.62779
G01 X-0.40193 Y-0.62998
G01 X-0.40017 Y-0.63143
G01 X-0.33362 Y-0.63173
G01 X-0.33084 Y-0.63058
G01 X-0.32969 Y-0.62779
G04 P0 ( dwell for no time -- G64 should not smooth over this point )
G00 Z0.07874 ( retract )

G00 X-0.31988 Y-0.47539 ( rapid move to begin. )
G01 F3.93701
G01 Z-0.01181
G04 P0 ( dwell for no time -- G64 should not smooth over this point )
G01 F7.87402
G01 X-0.31988 Y-0.47539
G01 X-0.31988 Y-0.34350
G01 X-0.32055 Y-0.34132
G01 X-0.32163 Y-0.34023
G01 X-0.32382 Y-0.33957
G01 X-0.40059 Y-0.33957
G01 X-0.40278 Y-0.34023
G01 X-0.40386 Y-0.34132
G01 X-0.40453 Y-0.34350
G01 X-0.40453 Y-0.47539
G01 X-0.40386 Y-0.47758
G01 X-0.40210 Y-0.47903
G01 X-0.40059 Y-0.47933
G01 X-0.32382 Y-0.47933
G01 X-0.32104 Y-0.47818
G01 X-0.31988 Y-0.47539
G04 P0 ( dwell for no time -- G64 should not smooth over this point )
G00 Z0.07874 ( retract )

G00 X-0.01768 Y-0.73429 ( rapid move to begin. )
G01 F3.93701
G01 Z-0.01181
G04 P0 ( dwell for no time -- G64 should not smooth over this point )
G01 F7.87402
G01 X-0.01768 Y-0.73429
G01 X-0.01768 Y-0.65153
G01 X-0.01798 Y-0.65003
G01 X-0.01943 Y-0.64826
G01 X-0.02161 Y-0.64760
G01 X-0.14374 Y-0.64760
G01 X-0.14593 Y-0.64826
G01 X-0.14701 Y-0.64935
G01 X-0.14768 Y-0.65153
G01 X-0.14768 Y-0.73429
G01 X-0.14701 Y-0.73648
G01 X-0.14593 Y-0.73756
G01 X-0.14374 Y-0.73823
G01 X-0.02161 Y-0.73823
G01 X-0.01883 Y-0.73708
G01 X-0.01768 Y-0.73429
G04 P0 ( dwell for no time -- G64 should not smooth over this point )
G00 Z0.07874 ( retract )

G00 X-0.01750 Y-0.79330 ( rapid move to begin. )
G01 F3.93701
G01 Z-0.01181
G04 P0 ( dwell for no time -- G64 should not smooth over this point )
G01 F7.87402
G01 X-0.01750 Y-0.79330
G01 X-0.01829 Y-0.80141
G01 X-0.02081 Y-0.80997
G01 X-0.02538 Y-0.81851
G01 X-0.03055 Y-0.82481
G01 X-0.03739 Y-0.83053
G01 X-0.04522 Y-0.83480
G01 X-0.05374 Y-0.83746
G01 X-0.06057 Y-0.83821
G01 X-0.10439 Y-0.83823
G01 X-0.11162 Y-0.83746
G01 X-0.12013 Y-0.83480
G01 X-0.12796 Y-0.83053
G01 X-0.13481 Y-0.82481
G01 X-0.14041 Y-0.81787
G01 X-0.14454 Y-0.80997
G01 X-0.14706 Y-0.80141
G01 X-0.14786 Y-0.79253
G01 X-0.14706 Y-0.78442
G01 X-0.14454 Y-0.77586
G01 X-0.14041 Y-0.76796
G01 X-0.13426 Y-0.76047
G01 X-0.12732 Y-0.75487
G01 X-0.12013 Y-0.75103
G01 X-0.11162 Y-0.74837
G01 X-0.10478 Y-0.74762
G01 X-0.06096 Y-0.74760
G01 X-0.05374 Y-0.74837
G01 X-0.04522 Y-0.75103
G01 X-0.03739 Y-0.75530
G01 X-0.03055 Y-0.76101
G01 X-0.02495 Y-0.76796
G01 X-0.02081 Y-0.77586
G01 X-0.01829 Y-0.78442
G01 X-0.01750 Y-0.79330
G04 P0 ( dwell for no time -- G64 should not smooth over this point )
G00 Z0.07874 ( retract )

G00 X-0.01750 Y-0.89330 ( rapid move to begin. )
G01 F3.93701
G01 Z-0.01181
G04 P0 ( dwell for no time -- G64 should not smooth over this point )
G01 F7.87402
G01 X-0.01750 Y-0.89330
G01 X-0.01829 Y-0.90141
G01 X-0.02081 Y-0.90997
G01 X-0.02538 Y-0.91851
G01 X-0.03055 Y-0.92481
G01 X-0.03739 Y-0.93053
G01 X-0.04522 Y-0.93480
G01 X-0.05374 Y-0.93746
G01 X-0.06057 Y-0.93821
G01 X-0.10439 Y-0.93823
G01 X-0.11162 Y-0.93746
G01 X-0.12013 Y-0.93480
G01 X-0.12796 Y-0.93053
G01 X-0.13481 Y-0.92481
G01 X-0.14041 Y-0.91787
G01 X-0.14454 Y-0.90997
G01 X-0.14706 Y-0.90141
G01 X-0.14786 Y-0.89253
G01 X-0.14706 Y-0.88442
G01 X-0.14454 Y-0.87586
G01 X-0.14041 Y-0.86796
G01 X-0.13426 Y-0.86047
G01 X-0.12732 Y-0.85487
G01 X-0.12013 Y-0.85103
G01 X-0.11162 Y-0.84837
G01 X-0.10478 Y-0.84762
G01 X-0.06096 Y-0.84760
G01 X-0.05374 Y-0.84837
G01 X-0.04522 Y-0.85103
G01 X-0.03739 Y-0.85530
G01 X-0.03055 Y-0.86101
G01 X-0.02495 Y-0.86796
G01 X-0.02081 Y-0.87586
G01 X-0.01829 Y-0.88442
G01 X-0.01750 Y-0.89330
G04 P0 ( dwell for no time -- G64 should not smooth over this point )
G00 Z0.07874 ( retract )

G00 X-0.05901 Y-1.45131 ( rapid move to begin. )
G01 F3.93701
G01 Z-0.01181
G04 P0 ( dwell for no time -- G64 should not smooth over this point )
G01 F7.87402
G01 X-0.05901 Y-1.45131
G01 X-0.05909 Y-1.44162
G01 X-0.06106 Y-1.43213
G01 X-0.06484 Y-1.42320
G01 X-0.07029 Y-1.41518
G01 X-0.07719 Y-1.40838
G01 X-0.08530 Y-1.40305
G01 X-0.09428 Y-1.39942
G01 X-0.10380 Y-1.39760
G01 X-0.11350 Y-1.39767
G01 X-0.12299 Y-1.39964
G01 X-0.13192 Y-1.40342
G01 X-0.13994 Y-1.40887
G01 X-0.14674 Y-1.41578
G01 X-0.15206 Y-1.42388
G01 X-0.15570 Y-1.43286
G01 X-0.15752 Y-1.44239
G01 X-0.15744 Y-1.45208
G01 X-0.15548 Y-1.46157
G01 X-0.15170 Y-1.47050
G01 X-0.14625 Y-1.47852
G01 X-0.13934 Y-1.48532
G01 X-0.13124 Y-1.49064
G01 X-0.12225 Y-1.49429
G01 X-0.11273 Y-1.49610
G01 X-0.10304 Y-1.49603
G01 X-0.09354 Y-1.49406
G01 X-0.08461 Y-1.49028
G01 X-0.07660 Y-1.48483
G01 X-0.06979 Y-1.47792
G01 X-0.06447 Y-1.46982
G01 X-0.06083 Y-1.46084
G01 X-0.05901 Y-1.45131
G04 P0 ( dwell for no time -- G64 should not smooth over this point )
G00 Z0.07874 ( retract )

G00 X-0.31988 Y-1.46358 ( rapid move to begin. )
G01 F3.93701
G01 Z-0.01181
G04 P0 ( dwell for no time -- G64 should not smooth over this point )
G01 F7.87402
G01 X-0.31988 Y-1.46358
G01 X-0.31988 Y-1.33169
G01 X-0.32055 Y-1.32950
G01 X-0.32163 Y-1.32842
G01 X-0.32382 Y-1.32776
G01 X-0.40059 Y-1.32776
G01 X-0.40278 Y-1.32842
G01 X-0.40386 Y-1.32950
G01 X-0.40453 Y-1.33169
G01 X-0.40453 Y-1.46358
G01 X-0.40386 Y-1.46577
G01 X-0.40278 Y-1.46686
G01 X-0.40059 Y-1.46752
G01 X-0.32382 Y-1.46752
G01 X-0.32104 Y-1.46637
G01 X-0.31988 Y-1.46358
G04 P0 ( dwell for no time -- G64 should not smooth over this point )
G00 Z0.07874 ( retract )

G00 X-0.54035 Y-1.46358 ( rapid move to begin. )
G01 F3.93701
G01 Z-0.01181
G04 P0 ( dwell for no time -- G64 should not smooth over this point )
G01 F7.87402
G01 X-0.54035 Y-1.46358
G01 X-0.54151 Y-1.46637
G01 X-0.54429 Y-1.46752
G01 X-0.62106 Y-1.46752
G01 X-0.62325 Y-1.46686
G01 X-0.62434 Y-1.46577
G01 X-0.62500 Y-1.46358
G01 X-0.62500 Y-1.33169
G01 X-0.62434 Y-1.32950
G01 X-0.62325 Y-1.32842
G01 X-0.62106 Y-1.32776
G01 X-0.54429 Y-1.32776
G01 X-0.54278 Y-1.32805
G01 X-0.54102 Y-1.32950
G01 X-0.54035 Y-1.33169
G01 X-0.54035 Y-1.46358
G04 P0 ( dwell for no time -- G64 should not smooth over this point )
G00 Z0.07874 ( retract )

G00 X-0.54228 Y-1.26992 ( rapid move to begin. )
G01 F3.93701
G01 Z-0.01181
G04 P0 ( dwell for no time -- G64 should not smooth over this point )
G01 F7.87402
G01 X-0.54228 Y-1.26992
G01 X-0.54228 Y-1.24228
G01 X-0.54295 Y-1.24010
G01 X-0.54471 Y-1.23865
G01 X-0.61126 Y-1.23835
G01 X-0.61345 Y-1.23901
G01 X-0.61490 Y-1.24078
G01 X-0.61520 Y-1.26992
G01 X-0.61453 Y-1.27211
G01 X-0.61277 Y-1.27356
G01 X-0.54622 Y-1.27386
G01 X-0.54344 Y-1.27270
G01 X-0.54228 Y-1.26992
G04 P0 ( dwell for no time -- G64 should not smooth over this point )
G00 Z0.07874 ( retract )

G00 X-0.67319 Y-1.31106 ( rapid move to begin. )
G01 F3.93701
G01 Z-0.01181
G04 P0 ( dwell for no time -- G64 should not smooth over this point )
G01 F7.87402
G01 X-0.67319 Y-1.31106
G01 X-0.67319 Y-1.18894
G01 X-0.67434 Y-1.18615
G01 X-0.67712 Y-1.18500
G01 X-0.79925 Y-1.18500
G01 X-0.80204 Y-1.18615
G01 X-0.80319 Y-1.18894
G01 X-0.80319 Y-1.31106
G01 X-0.80204 Y-1.31385
G01 X-0.79925 Y-1.31500
G01 X-0.67712 Y-1.31500
G01 X-0.67434 Y-1.31385
G01 X-0.67319 Y-1.31106
G04 P0 ( dwell for no time -- G64 should not smooth over this point )
G00 Z0.07874 ( retract )

G00 X-0.88972 Y-1.38397 ( rapid move to begin. )
G01 F3.93701
G01 Z-0.01181
G04 P0 ( dwell for no time -- G64 should not smooth over this point )
G01 F7.87402
G01 X-0.88972 Y-1.38397
G01 X-0.88980 Y-1.37117
G01 X-0.89237 Y-1.35863
G01 X-0.89734 Y-1.34684
G01 X-0.90451 Y-1.33624
G01 X-0.91361 Y-1.32725
G01 X-0.92429 Y-1.32020
G01 X-0.93614 Y-1.31537
G01 X-0.94871 Y-1.31295
G01 X-0.96151 Y-1.31303
G01 X-0.97404 Y-1.31560
G01 X-0.98584 Y-1.32056
G01 X-0.99643 Y-1.32774
G01 X-1.00543 Y-1.33684
G01 X-1.01248 Y-1.34752
G01 X-1.01730 Y-1.35937
G01 X-1.01972 Y-1.37194
G01 X-1.01965 Y-1.38474
G01 X-1.01708 Y-1.39727
G01 X-1.01211 Y-1.40906
G01 X-1.00494 Y-1.41966
G01 X-0.99584 Y-1.42866
G01 X-0.98516 Y-1.43570
G01 X-0.97330 Y-1.44053
G01 X-0.96074 Y-1.44295
G01 X-0.94794 Y-1.44288
G01 X-0.93541 Y-1.44031
G01 X-0.92361 Y-1.43534
G01 X-0.91302 Y-1.42817
G01 X-0.90402 Y-1.41907
G01 X-0.89697 Y-1.40838
G01 X-0.89215 Y-1.39653
G01 X-0.88972 Y-1.38397
G04 P0 ( dwell for no time -- G64 should not smooth over this point )
G00 Z0.07874 ( retract )

G00 X-0.88972 Y-1.18712 ( rapid move to begin. )
G01 F3.93701
G01 Z-0.01181
G04 P0 ( dwell for no time -- G64 should not smooth over this point )
G01 F7.87402
G01 X-0.88972 Y-1.18712
G01 X-0.88980 Y-1.17432
G01 X-0.89237 Y-1.16178
G01 X-0.89734 Y-1.14999
G01 X-0.90451 Y-1.13939
G01 X-0.91361 Y-1.13040
G01 X-0.92429 Y-1.12335
G01 X-0.93614 Y-1.11852
G01 X-0.94871 Y-1.11610
G01 X-0.96151 Y-1.11618
G01 X-0.97404 Y-1.11875
G01 X-0.98584 Y-1.12372
G01 X-0.99643 Y-1.13089
G01 X-1.00543 Y-1.13999
G01 X-1.01248 Y-1.15067
G01 X-1.01730 Y-1.16252
G01 X-1.01972 Y-1.17509
G01 X-1.01965 Y-1.18788
G01 X-1.01708 Y-1.20042
G01 X-1.01211 Y-1.21221
G01 X-1.00494 Y-1.22281
G01 X-0.99584 Y-1.23181
G01 X-0.98516 Y-1.23885
G01 X-0.97330 Y-1.24368
G01 X-0.96074 Y-1.24610
G01 X-0.94794 Y-1.24603
G01 X-0.93541 Y-1.24346
G01 X-0.92361 Y-1.23849
G01 X-0.91302 Y-1.23132
G01 X-0.90402 Y-1.22222
G01 X-0.89697 Y-1.21153
G01 X-0.89215 Y-1.19968
G01 X-0.88972 Y-1.18712
G04 P0 ( dwell for no time -- G64 should not smooth over this point )
G00 Z0.07874 ( retract )

G00 X-1.09642 Y-1.18712 ( rapid move to begin. )
G01 F3.93701
G01 Z-0.01181
G04 P0 ( dwell for no time -- G64 should not smooth over this point )
G01 F7.87402
G01 X-1.09642 Y-1.18712
G01 X-1.09884 Y-1.19968
G01 X-1.10367 Y-1.21153
G01 X-1.11071 Y-1.22222
G01 X-1.11971 Y-1.23132
G01 X-1.13030 Y-1.23849
G01 X-1.14210 Y-1.24346
G01 X-1.15463 Y-1.24603
G01 X-1.16743 Y-1.24610
G01 X-1.18000 Y-1.24368
G01 X-1.19185 Y-1.23885
G01 X-1.20253 Y-1.23181
G01 X-1.21163 Y-1.22281
G01 X-1.21880 Y-1.21221
G01 X-1.22377 Y-1.20042
G01 X-1.22634 Y-1.18788
G01 X-1.22642 Y-1.17509
G01 X-1.22399 Y-1.16252
G01 X-1.21917 Y-1.15067
G01 X-1.21212 Y-1.13999
G01 X-1.20313 Y-1.13089
G01 X-1.19253 Y-1.12372
G01 X-1.18074 Y-1.11875
G01 X-1.16820 Y-1.11618
G01 X-1.15540 Y-1.11610
G01 X-1.14284 Y-1.11852
G01 X-1.13099 Y-1.12335
G01 X-1.12030 Y-1.13040
G01 X-1.11120 Y-1.13939
G01 X-1.10403 Y-1.14999
G01 X-1.09906 Y-1.16178
G01 X-1.09649 Y-1.17432
G01 X-1.09642 Y-1.18712
G04 P0 ( dwell for no time -- G64 should not smooth over this point )
G00 Z0.07874 ( retract )

G00 X-1.09642 Y-1.38397 ( rapid move to begin. )
G01 F3.93701
G01 Z-0.01181
G04 P0 ( dwell for no time -- G64 should not smooth over this point )
G01 F7.87402
G01 X-1.09642 Y-1.38397
G01 X-1.09884 Y-1.39653
G01 X-1.10367 Y-1.40838
G01 X-1.11071 Y-1.41907
G01 X-1.11971 Y-1.42817
G01 X-1.13030 Y-1.43534
G01 X-1.14210 Y-1.44031
G01 X-1.15463 Y-1.44288
G01 X-1.16743 Y-1.44295
G01 X-1.18000 Y-1.44053
G01 X-1.19185 Y-1.43570
G01 X-1.20253 Y-1.42866
G01 X-1.21163 Y-1.41966
G01 X-1.21880 Y-1.40906
G01 X-1.22377 Y-1.39727
G01 X-1.22634 Y-1.38474
G01 X-1.22642 Y-1.37194
G01 X-1.22399 Y-1.35937
G01 X-1.21917 Y-1.34752
G01 X-1.21212 Y-1.33684
G01 X-1.20313 Y-1.32774
G01 X-1.19253 Y-1.32056
G01 X-1.18074 Y-1.31560
G01 X-1.16820 Y-1.31303
G01 X-1.15540 Y-1.31295
G01 X-1.14284 Y-1.31537
G01 X-1.13099 Y-1.32020
G01 X-1.12030 Y-1.32725
G01 X-1.11120 Y-1.33624
G01 X-1.10403 Y-1.34684
G01 X-1.09906 Y-1.35863
G01 X-1.09649 Y-1.37117
G01 X-1.09642 Y-1.38397
G04 P0 ( dwell for no time -- G64 should not smooth over this point )
G00 Z0.07874 ( retract )

G00 X-1.27358 Y-1.37012 ( rapid move to begin. )
G01 F3.93701
G01 Z-0.01181
G04 P0 ( dwell for no time -- G64 should not smooth over this point )
G01 F7.87402
G01 X-1.27358 Y-1.37012
G01 X-1.27358 Y-1.28736
G01 X-1.27425 Y-1.28517
G01 X-1.27533 Y-1.28409
G01 X-1.27752 Y-1.28343
G01 X-1.39965 Y-1.28343
G01 X-1.40115 Y-1.28372
G01 X-1.40292 Y-1.28517
G01 X-1.40358 Y-1.28736
G01 X-1.40358 Y-1.37012
G01 X-1.40292 Y-1.37231
G01 X-1.40183 Y-1.37339
G01 X-1.39965 Y-1.37406
G01 X-1.27752 Y-1.37406
G01 X-1.27473 Y-1.37290
G01 X-1.27358 Y-1.37012
G04 P0 ( dwell for no time -- G64 should not smooth over this point )
G00 Z0.07874 ( retract )

G00 X-1.27340 Y-1.22913 ( rapid move to begin. )
G01 F3.93701
G01 Z-0.01181
G04 P0 ( dwell for no time -- G64 should not smooth over this point )
G01 F7.87402
G01 X-1.27340 Y-1.22913
G01 X-1.27420 Y-1.22024
G01 X-1.27672 Y-1.21169
G01 X-1.28085 Y-1.20378
G01 X-1.28645 Y-1.19684
G01 X-1.29330 Y-1.19112
G01 X-1.30113 Y-1.18685
G01 X-1.30964 Y-1.18419
G01 X-1.31686 Y-1.18342
G01 X-1.36069 Y-1.18344
G01 X-1.36752 Y-1.18419
G01 X-1.37603 Y-1.18685
G01 X-1.38386 Y-1.19112
G01 X-1.39017 Y-1.19630
G01 X-1.39588 Y-1.20314
G01 X-1.40045 Y-1.21169
G01 X-1.40297 Y-1.22024
G01 X-1.40376 Y-1.22835
G01 X-1.40297 Y-1.23724
G01 X-1.40045 Y-1.24579
G01 X-1.39631 Y-1.25370
G01 X-1.39071 Y-1.26064
G01 X-1.38386 Y-1.26635
G01 X-1.37603 Y-1.27062
G01 X-1.36752 Y-1.27329
G01 X-1.36030 Y-1.27405
G01 X-1.31648 Y-1.27404
G01 X-1.30964 Y-1.27329
G01 X-1.30113 Y-1.27062
G01 X-1.29394 Y-1.26678
G01 X-1.28700 Y-1.26118
G01 X-1.28085 Y-1.25370
G01 X-1.27672 Y-1.24579
G01 X-1.27435 Y-1.23799
G01 X-1.27340 Y-1.22913
G04 P0 ( dwell for no time -- G64 should not smooth over this point )
G00 Z0.07874 ( retract )

G00 X-1.34838 Y-1.02808 ( rapid move to begin. )
G01 F3.93701
G01 Z-0.01181
G04 P0 ( dwell for no time -- G64 should not smooth over this point )
G01 F7.87402
G01 X-1.34838 Y-1.02808
G01 X-1.34846 Y-1.01839
G01 X-1.35043 Y-1.00890
G01 X-1.35421 Y-0.99997
G01 X-1.35966 Y-0.99195
G01 X-1.36656 Y-0.98515
G01 X-1.37467 Y-0.97983
G01 X-1.38365 Y-0.97619
G01 X-1.39317 Y-0.97437
G01 X-1.40287 Y-0.97445
G01 X-1.41236 Y-0.97641
G01 X-1.42129 Y-0.98019
G01 X-1.42931 Y-0.98564
G01 X-1.43611 Y-0.99255
G01 X-1.44143 Y-1.00065
G01 X-1.44507 Y-1.00964
G01 X-1.44689 Y-1.01916
G01 X-1.44681 Y-1.02885
G01 X-1.44485 Y-1.03835
G01 X-1.44107 Y-1.04727
G01 X-1.43562 Y-1.05529
G01 X-1.42871 Y-1.06209
G01 X-1.42061 Y-1.06742
G01 X-1.41162 Y-1.07106
G01 X-1.40210 Y-1.07287
G01 X-1.39241 Y-1.07280
G01 X-1.38291 Y-1.07083
G01 X-1.37399 Y-1.06705
G01 X-1.36597 Y-1.06160
G01 X-1.35916 Y-1.05470
G01 X-1.35384 Y-1.04659
G01 X-1.35020 Y-1.03761
G01 X-1.34838 Y-1.02808
G04 P0 ( dwell for no time -- G64 should not smooth over this point )
G00 Z0.07874 ( retract )

G00 X-1.27358 Y-0.86815 ( rapid move to begin. )
G01 F3.93701
G01 Z-0.01181
G04 P0 ( dwell for no time -- G64 should not smooth over this point )
G01 F7.87402
G01 X-1.27358 Y-0.86815
G01 X-1.27358 Y-0.78539
G01 X-1.27425 Y-0.78321
G01 X-1.27533 Y-0.78212
G01 X-1.27752 Y-0.78146
G01 X-1.39965 Y-0.78146
G01 X-1.40115 Y-0.78176
G01 X-1.40292 Y-0.78321
G01 X-1.40358 Y-0.78539
G01 X-1.40358 Y-0.86815
G01 X-1.40292 Y-0.87034
G01 X-1.40183 Y-0.87142
G01 X-1.39965 Y-0.87209
G01 X-1.27752 Y-0.87209
G01 X-1.27473 Y-0.87093
G01 X-1.27358 Y-0.86815
G04 P0 ( dwell for no time -- G64 should not smooth over this point )
G00 Z0.07874 ( retract )

G00 X-1.27340 Y-0.72716 ( rapid move to begin. )
G01 F3.93701
G01 Z-0.01181
G04 P0 ( dwell for no time -- G64 should not smooth over this point )
G01 F7.87402
G01 X-1.27340 Y-0.72716
G01 X-1.27420 Y-0.71827
G01 X-1.27672 Y-0.70972
G01 X-1.28085 Y-0.70182
G01 X-1.28645 Y-0.69487
G01 X-1.29330 Y-0.68916
G01 X-1.30113 Y-0.68489
G01 X-1.30964 Y-0.68222
G01 X-1.31686 Y-0.68146
G01 X-1.36069 Y-0.68148
G01 X-1.36752 Y-0.68222
G01 X-1.37603 Y-0.68489
G01 X-1.38386 Y-0.68916
G01 X-1.39071 Y-0.69487
G01 X-1.39588 Y-0.70117
G01 X-1.40045 Y-0.70972
G01 X-1.40297 Y-0.71827
G01 X-1.40376 Y-0.72638
G01 X-1.40297 Y-0.73527
G01 X-1.40045 Y-0.74382
G01 X-1.39631 Y-0.75173
G01 X-1.39071 Y-0.75867
G01 X-1.38386 Y-0.76438
G01 X-1.37603 Y-0.76866
G01 X-1.36752 Y-0.77132
G01 X-1.36030 Y-0.77209
G01 X-1.31648 Y-0.77207
G01 X-1.30964 Y-0.77132
G01 X-1.30113 Y-0.76866
G01 X-1.29394 Y-0.76481
G01 X-1.28700 Y-0.75921
G01 X-1.28085 Y-0.75173
G01 X-1.27672 Y-0.74382
G01 X-1.27435 Y-0.73603
G01 X-1.27340 Y-0.72716
G04 P0 ( dwell for no time -- G64 should not smooth over this point )
G00 Z0.07874 ( retract )

G00 X-1.09642 Y-0.88200 ( rapid move to begin. )
G01 F3.93701
G01 Z-0.01181
G04 P0 ( dwell for no time -- G64 should not smooth over this point )
G01 F7.87402
G01 X-1.09642 Y-0.88200
G01 X-1.09649 Y-0.86920
G01 X-1.09906 Y-0.85667
G01 X-1.10403 Y-0.84487
G01 X-1.11120 Y-0.83427
G01 X-1.12030 Y-0.82528
G01 X-1.13099 Y-0.81823
G01 X-1.14284 Y-0.81341
G01 X-1.15540 Y-0.81098
G01 X-1.16820 Y-0.81106
G01 X-1.18074 Y-0.81363
G01 X-1.19253 Y-0.81860
G01 X-1.20313 Y-0.82577
G01 X-1.21212 Y-0.83487
G01 X-1.21917 Y-0.84555
G01 X-1.22399 Y-0.85740
G01 X-1.22642 Y-0.86997
G01 X-1.22634 Y-0.88277
G01 X-1.22377 Y-0.89530
G01 X-1.21880 Y-0.90709
G01 X-1.21163 Y-0.91769
G01 X-1.20253 Y-0.92669
G01 X-1.19185 Y-0.93373
G01 X-1.18000 Y-0.93856
G01 X-1.16743 Y-0.94098
G01 X-1.15463 Y-0.94091
G01 X-1.14210 Y-0.93834
G01 X-1.13030 Y-0.93337
G01 X-1.11971 Y-0.92620
G01 X-1.11071 Y-0.91710
G01 X-1.10367 Y-0.90641
G01 X-1.09884 Y-0.89456
G01 X-1.09642 Y-0.88200
G04 P0 ( dwell for no time -- G64 should not smooth over this point )
G00 Z0.07874 ( retract )

G00 X-0.88972 Y-0.68515 ( rapid move to begin. )
G01 F3.93701
G01 Z-0.01181
G04 P0 ( dwell for no time -- G64 should not smooth over this point )
G01 F7.87402
G01 X-0.88972 Y-0.68515
G01 X-0.89215 Y-0.69771
G01 X-0.89697 Y-0.70956
G01 X-0.90402 Y-0.72025
G01 X-0.91302 Y-0.72935
G01 X-0.92361 Y-0.73652
G01 X-0.93541 Y-0.74149
G01 X-0.94794 Y-0.74406
G01 X-0.96074 Y-0.74413
G01 X-0.97330 Y-0.74171
G01 X-0.98516 Y-0.73688
G01 X-0.99584 Y-0.72984
G01 X-1.00494 Y-0.72084
G01 X-1.01211 Y-0.71025
G01 X-1.01708 Y-0.69845
G01 X-1.01965 Y-0.68592
G01 X-1.01972 Y-0.67312
G01 X-1.01730 Y-0.66055
G01 X-1.01248 Y-0.64870
G01 X-1.00543 Y-0.63802
G01 X-0.99643 Y-0.62892
G01 X-0.98584 Y-0.62175
G01 X-0.97404 Y-0.61678
G01 X-0.96151 Y-0.61421
G01 X-0.94871 Y-0.61413
G01 X-0.93614 Y-0.61656
G01 X-0.92429 Y-0.62138
G01 X-0.91361 Y-0.62843
G01 X-0.90451 Y-0.63742
G01 X-0.89734 Y-0.64802
G01 X-0.89237 Y-0.65982
G01 X-0.88980 Y-0.67235
G01 X-0.88972 Y-0.68515
G04 P0 ( dwell for no time -- G64 should not smooth over this point )
G00 Z0.07874 ( retract )

G00 X-0.88972 Y-0.88200 ( rapid move to begin. )
G01 F3.93701
G01 Z-0.01181
G04 P0 ( dwell for no time -- G64 should not smooth over this point )
G01 F7.87402
G01 X-0.88972 Y-0.88200
G01 X-0.89215 Y-0.89456
G01 X-0.89697 Y-0.90641
G01 X-0.90402 Y-0.91710
G01 X-0.91302 Y-0.92620
G01 X-0.92361 Y-0.93337
G01 X-0.93541 Y-0.93834
G01 X-0.94794 Y-0.94091
G01 X-0.96074 Y-0.94098
G01 X-0.97330 Y-0.93856
G01 X-0.98516 Y-0.93373
G01 X-0.99584 Y-0.92669
G01 X-1.00494 Y-0.91769
G01 X-1.01211 Y-0.90709
G01 X-1.01708 Y-0.89530
G01 X-1.01965 Y-0.88277
G01 X-1.01972 Y-0.86997
G01 X-1.01730 Y-0.85740
G01 X-1.01248 Y-0.84555
G01 X-1.00543 Y-0.83487
G01 X-0.99643 Y-0.82577
G01 X-0.98584 Y-0.81860
G01 X-0.97404 Y-0.81363
G01 X-0.96151 Y-0.81106
G01 X-0.94871 Y-0.81098
G01 X-0.93614 Y-0.81341
G01 X-0.92429 Y-0.81823
G01 X-0.91361 Y-0.82528
G01 X-0.90451 Y-0.83427
G01 X-0.89734 Y-0.84487
G01 X-0.89237 Y-0.85667
G01 X-0.88980 Y-0.86920
G01 X-0.88972 Y-0.88200
G04 P0 ( dwell for no time -- G64 should not smooth over this point )
G00 Z0.07874 ( retract )

G00 X-1.09642 Y-0.68515 ( rapid move to begin. )
G01 F3.93701
G01 Z-0.01181
G04 P0 ( dwell for no time -- G64 should not smooth over this point )
G01 F7.87402
G01 X-1.09642 Y-0.68515
G01 X-1.09884 Y-0.69771
G01 X-1.10367 Y-0.70956
G01 X-1.11071 Y-0.72025
G01 X-1.11971 Y-0.72935
G01 X-1.13030 Y-0.73652
G01 X-1.14210 Y-0.74149
G01 X-1.15463 Y-0.74406
G01 X-1.16743 Y-0.74413
G01 X-1.18000 Y-0.74171
G01 X-1.19185 Y-0.73688
G01 X-1.20253 Y-0.72984
G01 X-1.21163 Y-0.72084
G01 X-1.21880 Y-0.71025
G01 X-1.22377 Y-0.69845
G01 X-1.22634 Y-0.68592
G01 X-1.22642 Y-0.67312
G01 X-1.22399 Y-0.66055
G01 X-1.21917 Y-0.64870
G01 X-1.21212 Y-0.63802
G01 X-1.20313 Y-0.62892
G01 X-1.19253 Y-0.62175
G01 X-1.18074 Y-0.61678
G01 X-1.16820 Y-0.61421
G01 X-1.15540 Y-0.61413
G01 X-1.14284 Y-0.61656
G01 X-1.13099 Y-0.62138
G01 X-1.12030 Y-0.62843
G01 X-1.11120 Y-0.63742
G01 X-1.10403 Y-0.64802
G01 X-1.09906 Y-0.65982
G01 X-1.09649 Y-0.67235
G01 X-1.09642 Y-0.68515
G04 P0 ( dwell for no time -- G64 should not smooth over this point )
G00 Z0.07874 ( retract )

G00 X-1.34838 Y-0.42769 ( rapid move to begin. )
G01 F3.93701
G01 Z-0.01181
G04 P0 ( dwell for no time -- G64 should not smooth over this point )
G01 F7.87402
G01 X-1.34838 Y-0.42769
G01 X-1.35020 Y-0.43721
G01 X-1.35384 Y-0.44620
G01 X-1.35916 Y-0.45430
G01 X-1.36597 Y-0.46121
G01 X-1.37399 Y-0.46666
G01 X-1.38291 Y-0.47044
G01 X-1.39241 Y-0.47240
G01 X-1.40210 Y-0.47248
G01 X-1.41162 Y-0.47066
G01 X-1.42061 Y-0.46702
G01 X-1.42871 Y-0.46170
G01 X-1.43562 Y-0.45490
G01 X-1.44107 Y-0.44688
G01 X-1.44485 Y-0.43795
G01 X-1.44681 Y-0.42846
G01 X-1.44689 Y-0.41876
G01 X-1.44507 Y-0.40924
G01 X-1.44143 Y-0.40026
G01 X-1.43611 Y-0.39215
G01 X-1.42931 Y-0.38525
G01 X-1.42129 Y-0.37980
G01 X-1.41236 Y-0.37602
G01 X-1.40287 Y-0.37405
G01 X-1.39317 Y-0.37398
G01 X-1.38365 Y-0.37579
G01 X-1.37467 Y-0.37943
G01 X-1.36656 Y-0.38476
G01 X-1.35966 Y-0.39156
G01 X-1.35421 Y-0.39958
G01 X-1.35043 Y-0.40850
G01 X-1.34846 Y-0.41800
G01 X-1.34838 Y-0.42769
G04 P0 ( dwell for no time -- G64 should not smooth over this point )
G00 Z0.07874 ( retract )

G00 X-1.27358 Y-0.28744 ( rapid move to begin. )
G01 F3.93701
G01 Z-0.01181
G04 P0 ( dwell for no time -- G64 should not smooth over this point )
G01 F7.87402
G01 X-1.27358 Y-0.28744
G01 X-1.27473 Y-0.29022
G01 X-1.27752 Y-0.29138
G01 X-1.39965 Y-0.29138
G01 X-1.40183 Y-0.29071
G01 X-1.40292 Y-0.28963
G01 X-1.40358 Y-0.28744
G01 X-1.40358 Y-0.20469
G01 X-1.40292 Y-0.20250
G01 X-1.40115 Y-0.20105
G01 X-1.39965 Y-0.20075
G01 X-1.27752 Y-0.20075
G01 X-1.27533 Y-0.20141
G01 X-1.27425 Y-0.20250
G01 X-1.27358 Y-0.20469
G01 X-1.27358 Y-0.28744
G04 P0 ( dwell for no time -- G64 should not smooth over this point )
G00 Z0.07874 ( retract )

G00 X-1.27340 Y-0.14645 ( rapid move to begin. )
G01 F3.93701
G01 Z-0.01181
G04 P0 ( dwell for no time -- G64 should not smooth over this point )
G01 F7.87402
G01 X-1.27340 Y-0.14645
G01 X-1.27435 Y-0.15532
G01 X-1.27672 Y-0.16312
G01 X-1.28085 Y-0.17102
G01 X-1.28700 Y-0.17851
G01 X-1.29394 Y-0.18411
G01 X-1.30113 Y-0.18795
G01 X-1.30964 Y-0.19061
G01 X-1.31648 Y-0.19136
G01 X-1.36030 Y-0.19138
G01 X-1.36752 Y-0.19061
G01 X-1.37603 Y-0.18795
G01 X-1.38386 Y-0.18368
G01 X-1.39071 Y-0.17796
G01 X-1.39631 Y-0.17102
G01 X-1.40045 Y-0.16312
G01 X-1.40297 Y-0.15456
G01 X-1.40376 Y-0.14568
G01 X-1.40297 Y-0.13756
G01 X-1.40045 Y-0.12901
G01 X-1.39588 Y-0.12047
G01 X-1.39017 Y-0.11362
G01 X-1.38386 Y-0.10845
G01 X-1.37603 Y-0.10418
G01 X-1.36752 Y-0.10152
G01 X-1.36069 Y-0.10077
G01 X-1.31686 Y-0.10075
G01 X-1.30964 Y-0.10152
G01 X-1.30113 Y-0.10418
G01 X-1.29330 Y-0.10845
G01 X-1.28645 Y-0.11417
G01 X-1.28085 Y-0.12111
G01 X-1.27672 Y-0.12901
G01 X-1.27420 Y-0.13756
G01 X-1.27340 Y-0.14645
G04 P0 ( dwell for no time -- G64 should not smooth over this point )
G00 Z0.07874 ( retract )

G00 X-1.10626 Y-0.10347 ( rapid move to begin. )
G01 F3.93701
G01 Z-0.01181
G04 P0 ( dwell for no time -- G64 should not smooth over this point )
G01 F7.87402
G01 X-1.10626 Y-0.10347
G01 X-1.10830 Y-0.11413
G01 X-1.11239 Y-0.12419
G01 X-1.11836 Y-0.13326
G01 X-1.12598 Y-0.14099
G01 X-1.13497 Y-0.14709
G01 X-1.14497 Y-0.15131
G01 X-1.15560 Y-0.15351
G01 X-1.16646 Y-0.15358
G01 X-1.17712 Y-0.15154
G01 X-1.18718 Y-0.14745
G01 X-1.19626 Y-0.14148
G01 X-1.20399 Y-0.13386
G01 X-1.21008 Y-0.12487
G01 X-1.21431 Y-0.11487
G01 X-1.21650 Y-0.10424
G01 X-1.21657 Y-0.09338
G01 X-1.21453 Y-0.08272
G01 X-1.21044 Y-0.07266
G01 X-1.20448 Y-0.06359
G01 X-1.19685 Y-0.05586
G01 X-1.18787 Y-0.04976
G01 X-1.17786 Y-0.04553
G01 X-1.16723 Y-0.04334
G01 X-1.15637 Y-0.04327
G01 X-1.14571 Y-0.04531
G01 X-1.13565 Y-0.04940
G01 X-1.12658 Y-0.05537
G01 X-1.11885 Y-0.06299
G01 X-1.11275 Y-0.07197
G01 X-1.10853 Y-0.08198
G01 X-1.10634 Y-0.09261
G01 X-1.10626 Y-0.10347
G04 P0 ( dwell for no time -- G64 should not smooth over this point )
G00 Z0.07874 ( retract )

G00 X-0.90941 Y-0.10347 ( rapid move to begin. )
G01 F3.93701
G01 Z-0.01181
G04 P0 ( dwell for no time -- G64 should not smooth over this point )
G01 F7.87402
G01 X-0.90941 Y-0.10347
G01 X-0.91145 Y-0.11413
G01 X-0.91554 Y-0.12419
G01 X-0.92151 Y-0.13326
G01 X-0.92913 Y-0.14099
G01 X-0.93812 Y-0.14709
G01 X-0.94812 Y-0.15131
G01 X-0.95875 Y-0.15351
G01 X-0.96961 Y-0.15358
G01 X-0.98028 Y-0.15154
G01 X-0.99033 Y-0.14745
G01 X-0.99940 Y-0.14148
G01 X-1.00714 Y-0.13386
G01 X-1.01323 Y-0.12487
G01 X-1.01745 Y-0.11487
G01 X-1.01965 Y-0.10424
G01 X-1.01972 Y-0.09338
G01 X-1.01768 Y-0.08272
G01 X-1.01360 Y-0.07266
G01 X-1.00762 Y-0.06359
G01 X-1.00000 Y-0.05586
G01 X-0.99102 Y-0.04976
G01 X-0.98101 Y-0.04553
G01 X-0.97038 Y-0.04334
G01 X-0.95952 Y-0.04327
G01 X-0.94886 Y-0.04531
G01 X-0.93880 Y-0.04940
G01 X-0.92973 Y-0.05537
G01 X-0.92200 Y-0.06299
G01 X-0.91590 Y-0.07197
G01 X-0.91168 Y-0.08198
G01 X-0.90948 Y-0.09261
G01 X-0.90941 Y-0.10347
G04 P0 ( dwell for no time -- G64 should not smooth over this point )
G00 Z0.07874 ( retract )

G00 X-0.89957 Y-0.30129 ( rapid move to begin. )
G01 F3.93701
G01 Z-0.01181
G04 P0 ( dwell for no time -- G64 should not smooth over this point )
G01 F7.87402
G01 X-0.89957 Y-0.30129
G01 X-0.89964 Y-0.28849
G01 X-0.90221 Y-0.27596
G01 X-0.90718 Y-0.26416
G01 X-0.91435 Y-0.25357
G01 X-0.92345 Y-0.24457
G01 X-0.93414 Y-0.23752
G01 X-0.94599 Y-0.23270
G01 X-0.95855 Y-0.23028
G01 X-0.97135 Y-0.23035
G01 X-0.98388 Y-0.23292
G01 X-0.99568 Y-0.23789
G01 X-1.00628 Y-0.24506
G01 X-1.01527 Y-0.25416
G01 X-1.02232 Y-0.26484
G01 X-1.02714 Y-0.27670
G01 X-1.02957 Y-0.28926
G01 X-1.02949 Y-0.30206
G01 X-1.02692 Y-0.31459
G01 X-1.02195 Y-0.32639
G01 X-1.01478 Y-0.33698
G01 X-1.00568 Y-0.34598
G01 X-0.99500 Y-0.35303
G01 X-0.98315 Y-0.35785
G01 X-0.97058 Y-0.36028
G01 X-0.95778 Y-0.36020
G01 X-0.94525 Y-0.35763
G01 X-0.93346 Y-0.35266
G01 X-0.92286 Y-0.34549
G01 X-0.91386 Y-0.33639
G01 X-0.90682 Y-0.32571
G01 X-0.90199 Y-0.31385
G01 X-0.89957 Y-0.30129
G04 P0 ( dwell for no time -- G64 should not smooth over this point )
G00 Z0.07874 ( retract )

G00 X-1.09642 Y-0.30129 ( rapid move to begin. )
G01 F3.93701
G01 Z-0.01181
G04 P0 ( dwell for no time -- G64 should not smooth over this point )
G01 F7.87402
G01 X-1.09642 Y-0.30129
G01 X-1.09649 Y-0.28849
G01 X-1.09906 Y-0.27596
G01 X-1.10403 Y-0.26416
G01 X-1.11120 Y-0.25357
G01 X-1.12030 Y-0.24457
G01 X-1.13099 Y-0.23752
G01 X-1.14284 Y-0.23270
G01 X-1.15540 Y-0.23028
G01 X-1.16820 Y-0.23035
G01 X-1.18074 Y-0.23292
G01 X-1.19253 Y-0.23789
G01 X-1.20313 Y-0.24506
G01 X-1.21212 Y-0.25416
G01 X-1.21917 Y-0.26484
G01 X-1.22399 Y-0.27670
G01 X-1.22642 Y-0.28926
G01 X-1.22634 Y-0.30206
G01 X-1.22377 Y-0.31459
G01 X-1.21880 Y-0.32639
G01 X-1.21163 Y-0.33698
G01 X-1.20253 Y-0.34598
G01 X-1.19185 Y-0.35303
G01 X-1.18000 Y-0.35785
G01 X-1.16743 Y-0.36028
G01 X-1.15463 Y-0.36020
G01 X-1.14210 Y-0.35763
G01 X-1.13030 Y-0.35266
G01 X-1.11971 Y-0.34549
G01 X-1.11071 Y-0.33639
G01 X-1.10367 Y-0.32571
G01 X-1.09884 Y-0.31385
G01 X-1.09642 Y-0.30129

G04 P0 ( dwell for no time -- G64 should not smooth over this point )
G00 Z0.394 ( retract )

M5 ( Spindle off. )
G04 P1.000000
M9 ( Coolant off. )
M2 ( Program end. )

