( pcb2gcode 2.0.0 )
( Software-independent Gcode )

G94 ( Inches per minute feed rate. )
G20 ( Units == INCHES. )

G90 ( Absolute coordinates. )
G00 S1000 ( RPM spindle speed. )
G64 P0.00040 ( set maximum deviation from commanded toolpath )
G01 F7.87402 ( Feedrate. )


G00 Z0.39370 (Retract to tool change height)
T0
M5      (Spindle stop.)
G04 P1.00000 (Wait for spindle to stop)
(MSG, Change tool bit to mill diameter 0.00787in)
M6      (Tool change.)
M0      (Temporary machine stop.)
M3 ( Spindle on clockwise. )
G04 P1.00000 (Wait for spindle to get up to speed)
G04 P0 ( dwell for no time -- G64 should not smooth over this point )
G00 Z0.03937 ( retract )

G00 X0.54429 Y-0.23366 ( rapid move to begin. )
G01 F3.93701
G01 Z-0.00394
G04 P0 ( dwell for no time -- G64 should not smooth over this point )
G01 F7.87402
G01 X0.54429 Y-0.23366
G01 X0.54544 Y-0.23644
G01 X0.54746 Y-0.23752
G01 X0.56874 Y-0.23760
G01 X0.57258 Y-0.23949
G01 X0.57720 Y-0.24047
G01 X0.58412 Y-0.23974
G01 X0.58874 Y-0.23760
G01 X0.60925 Y-0.23760
G01 X0.61144 Y-0.23693
G01 X0.61289 Y-0.23517
G01 X0.61319 Y-0.23366
G01 X0.61311 Y-0.20927
G01 X0.61203 Y-0.20725
G01 X0.61002 Y-0.20618
G01 X0.59744 Y-0.20610
G01 X0.59744 Y-0.19055
G01 X0.89114 Y-0.19055
G01 X0.89516 Y-0.19010
G01 X0.90120 Y-0.18760
G01 X0.90436 Y-0.18507
G01 X0.94281 Y-0.14662
G01 X0.94814 Y-0.14897
G01 X0.95901 Y-0.15128
G01 X0.97012 Y-0.15128
G01 X0.98137 Y-0.14883
G01 X0.99149 Y-0.14423
G01 X1.00042 Y-0.13763
G01 X1.00757 Y-0.12967
G01 X1.01293 Y-0.12041
G01 X1.01409 Y-0.11713
G01 X1.11189 Y-0.11713
G01 X1.11305 Y-0.12041
G01 X1.11868 Y-0.12998
G01 X1.12556 Y-0.13763
G01 X1.13450 Y-0.14423
G01 X1.14539 Y-0.14908
G01 X1.15545 Y-0.15122
G01 X1.16656 Y-0.15130
G01 X1.17823 Y-0.14883
G01 X1.18762 Y-0.14464
G01 X1.19666 Y-0.13818
G01 X1.20442 Y-0.12967
G01 X1.20978 Y-0.12041
G01 X1.21094 Y-0.11713
G01 X1.28320 Y-0.11713
G01 X1.28520 Y-0.11913
G01 X1.28139 Y-0.12441
G01 X1.27786 Y-0.13229
G01 X1.27581 Y-0.14195
G01 X1.27583 Y-0.15059
G01 X1.27760 Y-0.15905
G01 X1.28120 Y-0.16735
G01 X1.28671 Y-0.17504
G01 X1.29379 Y-0.18132
G01 X1.30128 Y-0.18563
G01 X1.30950 Y-0.18832
G01 X1.31849 Y-0.18935
G01 X1.35868 Y-0.18935
G01 X1.36727 Y-0.18842
G01 X1.37625 Y-0.18544
G01 X1.38372 Y-0.18110
G01 X1.39016 Y-0.17533
G01 X1.39577 Y-0.16772
G01 X1.39931 Y-0.15983
G01 X1.40127 Y-0.15100
G01 X1.40134 Y-0.14154
G01 X1.39931 Y-0.13229
G01 X1.39555 Y-0.12406
G01 X1.39016 Y-0.11679
G01 X1.38404 Y-0.11129
G01 X1.37588 Y-0.10650
G01 X1.36727 Y-0.10370
G01 X1.35868 Y-0.10278
G01 X1.32172 Y-0.10275
G01 X1.30388 Y-0.08494
G01 X1.29845 Y-0.08131
G01 X1.29421 Y-0.08003
G01 X1.21094 Y-0.07972
G01 X1.20978 Y-0.07644
G01 X1.20442 Y-0.06718
G01 X1.19727 Y-0.05922
G01 X1.18834 Y-0.05262
G01 X1.17744 Y-0.04777
G01 X1.16656 Y-0.04555
G01 X1.15586 Y-0.04557
G01 X1.14539 Y-0.04777
G01 X1.13521 Y-0.05221
G01 X1.12617 Y-0.05867
G01 X1.11868 Y-0.06686
G01 X1.11305 Y-0.07644
G01 X1.11189 Y-0.07972
G01 X1.01409 Y-0.07972
G01 X1.01293 Y-0.07644
G01 X1.00731 Y-0.06686
G01 X1.00013 Y-0.05893
G01 X0.99149 Y-0.05262
G01 X0.98059 Y-0.04777
G01 X0.97012 Y-0.04557
G01 X0.95901 Y-0.04557
G01 X0.94814 Y-0.04788
G01 X0.93765 Y-0.05262
G01 X0.92871 Y-0.05922
G01 X0.92134 Y-0.06753
G01 X0.91586 Y-0.07719
G01 X0.91268 Y-0.08698
G01 X0.91144 Y-0.09801
G01 X0.91258 Y-0.10948
G01 X0.91618 Y-0.12037
G01 X0.88340 Y-0.15315
G01 X0.57874 Y-0.15315
G01 X0.57472 Y-0.15360
G01 X0.56868 Y-0.15610
G01 X0.54672 Y-0.15640
G01 X0.54495 Y-0.15785
G01 X0.54429 Y-0.16004
G01 X0.54437 Y-0.18443
G01 X0.54544 Y-0.18644
G01 X0.54746 Y-0.18752
G01 X0.56004 Y-0.18760
G01 X0.56004 Y-0.20610
G01 X0.54746 Y-0.20618
G01 X0.54495 Y-0.20785
G01 X0.54429 Y-0.21004
G01 X0.54429 Y-0.23366
G04 P0 ( dwell for no time -- G64 should not smooth over this point )
G00 Z0.03937 ( retract )

G00 X0.54429 Y-0.29153 ( rapid move to begin. )
G01 F3.93701
G01 Z-0.00394
G04 P0 ( dwell for no time -- G64 should not smooth over this point )
G01 F7.87402
G01 X0.54429 Y-0.29153
G01 X0.54544 Y-0.29432
G01 X0.54823 Y-0.29547
G01 X0.60925 Y-0.29547
G01 X0.61144 Y-0.29481
G01 X0.61252 Y-0.29372
G01 X0.61319 Y-0.29055
G01 X0.68504 Y-0.29055
G01 X0.68504 Y-0.33465
G01 X0.68570 Y-0.33683
G01 X0.68747 Y-0.33828
G01 X0.80785 Y-0.33851
G01 X0.81036 Y-0.33683
G01 X0.81102 Y-0.33465
G01 X0.81095 Y-0.21577
G01 X0.80987 Y-0.21375
G01 X0.80709 Y-0.21260
G01 X0.68821 Y-0.21267
G01 X0.68619 Y-0.21375
G01 X0.68504 Y-0.21654
G01 X0.68504 Y-0.25315
G01 X0.61319 Y-0.25315
G01 X0.61252 Y-0.24998
G01 X0.61144 Y-0.24889
G01 X0.60925 Y-0.24823
G01 X0.54746 Y-0.24830
G01 X0.54495 Y-0.24998
G01 X0.54429 Y-0.25216
G01 X0.54429 Y-0.29153
G04 P0 ( dwell for no time -- G64 should not smooth over this point )
G00 Z0.03937 ( retract )

G00 X0.47342 Y-0.39370 ( rapid move to begin. )
G01 F3.93701
G01 Z-0.00394
G04 P0 ( dwell for no time -- G64 should not smooth over this point )
G01 F7.87402
G01 X0.47342 Y-0.39370
G01 X0.47472 Y-0.40049
G01 X0.47681 Y-0.40440
G01 X0.49465 Y-0.42267
G01 X0.50037 Y-0.42656
G01 X0.50787 Y-0.42815
G01 X0.54331 Y-0.42815
G01 X0.54331 Y-0.46653
G01 X0.54446 Y-0.46932
G01 X0.54648 Y-0.47040
G01 X0.61888 Y-0.47040
G01 X0.62089 Y-0.46932
G01 X0.62197 Y-0.46730
G01 X0.62205 Y-0.44685
G01 X0.68504 Y-0.44685
G01 X0.68504 Y-0.49212
G01 X0.68570 Y-0.49431
G01 X0.68747 Y-0.49576
G01 X0.80709 Y-0.49606
G01 X0.80927 Y-0.49540
G01 X0.81095 Y-0.49289
G01 X0.81102 Y-0.37401
G01 X0.81036 Y-0.37183
G01 X0.80859 Y-0.37038
G01 X0.74574 Y-0.37008
G01 X0.73573 Y-0.36383
G01 X0.72791 Y-0.36129
G01 X0.71891 Y-0.36026
G01 X0.62205 Y-0.36024
G01 X0.62197 Y-0.33978
G01 X0.62089 Y-0.33777
G01 X0.61962 Y-0.33691
G01 X0.54724 Y-0.33661
G01 X0.54506 Y-0.33728
G01 X0.54338 Y-0.33978
G01 X0.54331 Y-0.38603
G01 X0.54134 Y-0.39075
G01 X0.51562 Y-0.39075
G01 X0.51083 Y-0.38595
G01 X0.51083 Y-0.15617
G01 X0.52645 Y-0.14055
G01 X0.54429 Y-0.14055
G01 X0.54495 Y-0.14372
G01 X0.54672 Y-0.14517
G01 X0.54823 Y-0.14547
G01 X0.60925 Y-0.14547
G01 X0.61144 Y-0.14481
G01 X0.61289 Y-0.14304
G01 X0.61319 Y-0.14153
G01 X0.61319 Y-0.10217
G01 X0.61252 Y-0.09998
G01 X0.61002 Y-0.09830
G01 X0.54823 Y-0.09823
G01 X0.54604 Y-0.09889
G01 X0.54495 Y-0.09998
G01 X0.54429 Y-0.10315
G01 X0.51870 Y-0.10315
G01 X0.51191 Y-0.10444
G01 X0.50548 Y-0.10863
G01 X0.47890 Y-0.13520
G01 X0.47501 Y-0.14092
G01 X0.47342 Y-0.14843
G01 X0.47342 Y-0.39370
G04 P0 ( dwell for no time -- G64 should not smooth over this point )
G00 Z0.03937 ( retract )

G00 X0.53150 Y-0.71486 ( rapid move to begin. )
G01 F3.93701
G01 Z-0.00394
G04 P0 ( dwell for no time -- G64 should not smooth over this point )
G01 F7.87402
G01 X0.53150 Y-0.71486
G01 X0.53157 Y-0.65445
G01 X0.53218 Y-0.65179
G01 X0.53362 Y-0.64949
G01 X0.53657 Y-0.64719
G01 X0.53757 Y-0.64544
G01 X0.53959 Y-0.64437
G01 X0.60138 Y-0.64429
G01 X0.60396 Y-0.64528
G01 X0.90191 Y-0.64528
G01 X0.90402 Y-0.64179
G01 X0.91228 Y-0.63261
G01 X0.92360 Y-0.62439
G01 X0.93487 Y-0.61937
G01 X0.94773 Y-0.61655
G01 X0.96090 Y-0.61647
G01 X0.97457 Y-0.61937
G01 X0.98585 Y-0.62439
G01 X0.99655 Y-0.63206
G01 X1.00591 Y-0.64245
G01 X1.01208 Y-0.65314
G01 X1.01454 Y-0.66043
G01 X1.10160 Y-0.66043
G01 X1.10406 Y-0.65314
G01 X1.11045 Y-0.64211
G01 X1.11898 Y-0.63261
G01 X1.12957 Y-0.62481
G01 X1.14235 Y-0.61912
G01 X1.15483 Y-0.61649
G01 X1.16759 Y-0.61647
G01 X1.18127 Y-0.61937
G01 X1.19255 Y-0.62439
G01 X1.20325 Y-0.63206
G01 X1.21260 Y-0.64245
G01 X1.21878 Y-0.65314
G01 X1.22123 Y-0.66043
G01 X1.29421 Y-0.66073
G01 X1.29845 Y-0.66202
G01 X1.30388 Y-0.66565
G01 X1.32172 Y-0.68346
G01 X1.35868 Y-0.68349
G01 X1.36727 Y-0.68441
G01 X1.37625 Y-0.68739
G01 X1.38372 Y-0.69173
G01 X1.39016 Y-0.69750
G01 X1.39577 Y-0.70512
G01 X1.39956 Y-0.71379
G01 X1.40127 Y-0.72184
G01 X1.40136 Y-0.73089
G01 X1.39945 Y-0.74015
G01 X1.39555 Y-0.74877
G01 X1.39016 Y-0.75604
G01 X1.38404 Y-0.76155
G01 X1.37625 Y-0.76615
G01 X1.36727 Y-0.76913
G01 X1.35868 Y-0.77006
G01 X1.31890 Y-0.77008
G01 X1.30950 Y-0.76902
G01 X1.30128 Y-0.76633
G01 X1.29379 Y-0.76203
G01 X1.28671 Y-0.75575
G01 X1.28120 Y-0.74806
G01 X1.27760 Y-0.73976
G01 X1.27589 Y-0.73171
G01 X1.27581 Y-0.72266
G01 X1.27786 Y-0.71300
G01 X1.28139 Y-0.70512
G01 X1.28520 Y-0.69984
G01 X1.28320 Y-0.69783
G01 X1.22123 Y-0.69783
G01 X1.21878 Y-0.70512
G01 X1.21260 Y-0.71581
G01 X1.20325 Y-0.72620
G01 X1.19326 Y-0.73346
G01 X1.18127 Y-0.73889
G01 X1.16759 Y-0.74180
G01 X1.15443 Y-0.74172
G01 X1.14235 Y-0.73915
G01 X1.12957 Y-0.73346
G01 X1.11898 Y-0.72565
G01 X1.11045 Y-0.71616
G01 X1.10406 Y-0.70512
G01 X1.10160 Y-0.69783
G01 X1.01454 Y-0.69783
G01 X1.01208 Y-0.70512
G01 X1.00569 Y-0.71616
G01 X0.99655 Y-0.72620
G01 X0.98622 Y-0.73369
G01 X0.97457 Y-0.73889
G01 X0.96131 Y-0.74178
G01 X0.94814 Y-0.74178
G01 X0.93566 Y-0.73915
G01 X0.92288 Y-0.73346
G01 X0.91289 Y-0.72620
G01 X0.90402 Y-0.71648
G01 X0.89703 Y-0.70437
G01 X0.89311 Y-0.69222
G01 X0.89214 Y-0.68268
G01 X0.61023 Y-0.68268
G01 X0.61010 Y-0.71642
G01 X0.60811 Y-0.72059
G01 X0.60288 Y-0.72549
G01 X0.59316 Y-0.72579
G01 X0.58844 Y-0.72995
G01 X0.58490 Y-0.73161
G01 X0.58069 Y-0.73257
G01 X0.57678 Y-0.73257
G01 X0.56976 Y-0.73036
G01 X0.56432 Y-0.72579
G01 X0.53885 Y-0.72549
G01 X0.53341 Y-0.72035
G01 X0.53212 Y-0.71811
G01 X0.53150 Y-0.71486
G04 P0 ( dwell for no time -- G64 should not smooth over this point )
G00 Z0.03937 ( retract )

G00 X0.53642 Y-0.77972 ( rapid move to begin. )
G01 F3.93701
G01 Z-0.00394
G04 P0 ( dwell for no time -- G64 should not smooth over this point )
G01 F7.87402
G01 X0.53642 Y-0.77972
G01 X0.53642 Y-0.74035
G01 X0.53708 Y-0.73817
G01 X0.53959 Y-0.73649
G01 X0.60215 Y-0.73649
G01 X0.60357 Y-0.73708
G01 X0.60501 Y-0.73885
G01 X0.60531 Y-0.74528
G01 X0.68504 Y-0.74528
G01 X0.68504 Y-0.70866
G01 X0.68619 Y-0.70588
G01 X0.68821 Y-0.70480
G01 X0.80709 Y-0.70472
G01 X0.80987 Y-0.70588
G01 X0.81095 Y-0.70789
G01 X0.81102 Y-0.82677
G01 X0.81036 Y-0.82896
G01 X0.80785 Y-0.83063
G01 X0.68747 Y-0.83041
G01 X0.68570 Y-0.82896
G01 X0.68504 Y-0.82677
G01 X0.68504 Y-0.78268
G01 X0.60396 Y-0.78268
G01 X0.60138 Y-0.78366
G01 X0.54035 Y-0.78366
G01 X0.53757 Y-0.78251
G01 X0.53642 Y-0.77972
G04 P0 ( dwell for no time -- G64 should not smooth over this point )
G00 Z0.03937 ( retract )

G00 X0.47342 Y-0.87992 ( rapid move to begin. )
G01 F3.93701
G01 Z-0.00394
G04 P0 ( dwell for no time -- G64 should not smooth over this point )
G01 F7.87402
G01 X0.47342 Y-0.87992
G01 X0.47342 Y-0.64055
G01 X0.47501 Y-0.63304
G01 X0.47890 Y-0.62733
G01 X0.50800 Y-0.59866
G01 X0.51191 Y-0.59657
G01 X0.51543 Y-0.59558
G01 X0.53642 Y-0.59527
G01 X0.53649 Y-0.58959
G01 X0.53757 Y-0.58757
G01 X0.53885 Y-0.58672
G01 X0.60288 Y-0.58672
G01 X0.60465 Y-0.58817
G01 X0.60531 Y-0.59035
G01 X0.60531 Y-0.62972
G01 X0.60501 Y-0.63123
G01 X0.60357 Y-0.63300
G01 X0.60138 Y-0.63366
G01 X0.54035 Y-0.63366
G01 X0.53778 Y-0.63268
G01 X0.52645 Y-0.63268
G01 X0.51083 Y-0.64830
G01 X0.51083 Y-0.87218
G01 X0.52546 Y-0.88681
G01 X0.55315 Y-0.88681
G01 X0.55315 Y-0.84252
G01 X0.55430 Y-0.83974
G01 X0.55709 Y-0.83858
G01 X0.62946 Y-0.83888
G01 X0.63074 Y-0.83974
G01 X0.63181 Y-0.84175
G01 X0.63189 Y-0.86220
G01 X0.71654 Y-0.86220
G01 X0.72594 Y-0.86326
G01 X0.73453 Y-0.86614
G01 X0.80859 Y-0.86644
G01 X0.81036 Y-0.86789
G01 X0.81102 Y-0.87008
G01 X0.81072 Y-0.98969
G01 X0.80927 Y-0.99146
G01 X0.80709 Y-0.99213
G01 X0.68747 Y-0.99183
G01 X0.68570 Y-0.99038
G01 X0.68504 Y-0.98819
G01 X0.68504 Y-0.94882
G01 X0.63189 Y-0.94882
G01 X0.63181 Y-0.96927
G01 X0.63074 Y-0.97129
G01 X0.62872 Y-0.97237
G01 X0.55558 Y-0.97214
G01 X0.55381 Y-0.97069
G01 X0.55315 Y-0.96850
G01 X0.55315 Y-0.92421
G01 X0.51733 Y-0.92419
G01 X0.51092 Y-0.92292
G01 X0.50766 Y-0.92126
G01 X0.50449 Y-0.91873
G01 X0.47864 Y-0.89286
G01 X0.47472 Y-0.88671
G01 X0.47342 Y-0.87992
G04 P0 ( dwell for no time -- G64 should not smooth over this point )
G00 Z0.03937 ( retract )

G00 X0.01969 Y-0.73228 ( rapid move to begin. )
G01 F3.93701
G01 Z-0.00394
G04 P0 ( dwell for no time -- G64 should not smooth over this point )
G01 F7.87402
G01 X0.01969 Y-0.73228
G01 X0.02084 Y-0.73507
G01 X0.02362 Y-0.73622
G01 X0.14173 Y-0.73622
G01 X0.14392 Y-0.73556
G01 X0.14537 Y-0.73379
G01 X0.14567 Y-0.73228
G01 X0.14559 Y-0.65277
G01 X0.14452 Y-0.65076
G01 X0.14250 Y-0.64968
G01 X0.12598 Y-0.64961
G01 X0.12598 Y-0.64195
G01 X0.31518 Y-0.45276
G01 X0.32283 Y-0.45276
G01 X0.32291 Y-0.46730
G01 X0.32399 Y-0.46932
G01 X0.32600 Y-0.47040
G01 X0.39914 Y-0.47017
G01 X0.40091 Y-0.46872
G01 X0.40157 Y-0.46653
G01 X0.40157 Y-0.42815
G01 X0.42717 Y-0.42815
G01 X0.43467 Y-0.42656
G01 X0.44039 Y-0.42267
G01 X0.46807 Y-0.39456
G01 X0.47016 Y-0.39065
G01 X0.47146 Y-0.38386
G01 X0.47144 Y-0.13741
G01 X0.47016 Y-0.13100
G01 X0.46807 Y-0.12710
G01 X0.44751 Y-0.10653
G01 X0.44360 Y-0.10444
G01 X0.43720 Y-0.10317
G01 X0.40059 Y-0.10315
G01 X0.39993 Y-0.09998
G01 X0.39884 Y-0.09889
G01 X0.39665 Y-0.09823
G01 X0.33563 Y-0.09823
G01 X0.33285 Y-0.09938
G01 X0.33169 Y-0.10217
G01 X0.33169 Y-0.14153
G01 X0.33236 Y-0.14372
G01 X0.33412 Y-0.14517
G01 X0.39665 Y-0.14547
G01 X0.39816 Y-0.14517
G01 X0.39993 Y-0.14372
G01 X0.40059 Y-0.14055
G01 X0.42906 Y-0.14055
G01 X0.43406 Y-0.14554
G01 X0.43406 Y-0.37611
G01 X0.41942 Y-0.39075
G01 X0.40157 Y-0.39075
G01 X0.40157 Y-0.34055
G01 X0.40127 Y-0.33904
G01 X0.39982 Y-0.33728
G01 X0.39764 Y-0.33661
G01 X0.32677 Y-0.33661
G01 X0.32399 Y-0.33777
G01 X0.32291 Y-0.33978
G01 X0.32283 Y-0.36614
G01 X0.29724 Y-0.36614
G01 X0.28842 Y-0.36707
G01 X0.28032 Y-0.36960
G01 X0.27352 Y-0.37324
G01 X0.26691 Y-0.37857
G01 X0.05205 Y-0.59339
G01 X0.04636 Y-0.60043
G01 X0.04225 Y-0.60850
G01 X0.03986 Y-0.61765
G01 X0.03937 Y-0.64961
G01 X0.02285 Y-0.64968
G01 X0.02084 Y-0.65076
G01 X0.01976 Y-0.65277
G01 X0.01969 Y-0.73228
G04 P0 ( dwell for no time -- G64 should not smooth over this point )
G00 Z0.03937 ( retract )

G00 X0.01990 Y-0.79703 ( rapid move to begin. )
G01 F3.93701
G01 Z-0.00394
G04 P0 ( dwell for no time -- G64 should not smooth over this point )
G01 F7.87402
G01 X0.01990 Y-0.79703
G01 X0.02180 Y-0.80630
G01 X0.02571 Y-0.81491
G01 X0.03081 Y-0.82189
G01 X0.03937 Y-0.82903
G01 X0.03937 Y-0.86181
G01 X0.04015 Y-0.86988
G01 X0.04254 Y-0.87802
G01 X0.04647 Y-0.88554
G01 X0.05205 Y-0.89243
G01 X0.09576 Y-0.93613
G01 X0.10201 Y-0.94129
G01 X0.10945 Y-0.94536
G01 X0.11755 Y-0.94789
G01 X0.12638 Y-0.94882
G01 X0.33268 Y-0.94882
G01 X0.33275 Y-0.96927
G01 X0.33334 Y-0.97069
G01 X0.33511 Y-0.97214
G01 X0.40899 Y-0.97214
G01 X0.41075 Y-0.97069
G01 X0.41142 Y-0.96850
G01 X0.41142 Y-0.92421
G01 X0.43043 Y-0.92391
G01 X0.43396 Y-0.92292
G01 X0.43787 Y-0.92083
G01 X0.46624 Y-0.89286
G01 X0.46987 Y-0.88743
G01 X0.47115 Y-0.88319
G01 X0.47146 Y-0.63740
G01 X0.47016 Y-0.63061
G01 X0.46598 Y-0.62418
G01 X0.44255 Y-0.60075
G01 X0.43939 Y-0.59823
G01 X0.43335 Y-0.59573
G01 X0.42933 Y-0.59527
G01 X0.39272 Y-0.59527
G01 X0.39242 Y-0.58885
G01 X0.39097 Y-0.58708
G01 X0.38878 Y-0.58642
G01 X0.32776 Y-0.58642
G01 X0.32557 Y-0.58708
G01 X0.32389 Y-0.58959
G01 X0.32382 Y-0.62972
G01 X0.32448 Y-0.63191
G01 X0.32625 Y-0.63336
G01 X0.38878 Y-0.63366
G01 X0.39136 Y-0.63268
G01 X0.42158 Y-0.63268
G01 X0.43406 Y-0.64515
G01 X0.43406 Y-0.87218
G01 X0.41942 Y-0.88681
G01 X0.41142 Y-0.88681
G01 X0.41142 Y-0.84252
G01 X0.41026 Y-0.83974
G01 X0.40748 Y-0.83858
G01 X0.33511 Y-0.83888
G01 X0.33383 Y-0.83974
G01 X0.33275 Y-0.84175
G01 X0.33268 Y-0.86220
G01 X0.14432 Y-0.86220
G01 X0.12598 Y-0.84387
G01 X0.12598 Y-0.82903
G01 X0.13480 Y-0.82157
G01 X0.14005 Y-0.81420
G01 X0.14355 Y-0.80630
G01 X0.14543 Y-0.79744
G01 X0.14545 Y-0.78880
G01 X0.14355 Y-0.77953
G01 X0.13964 Y-0.77091
G01 X0.13425 Y-0.76364
G01 X0.12747 Y-0.75765
G01 X0.12034 Y-0.75354
G01 X0.11137 Y-0.75055
G01 X0.10236 Y-0.74961
G01 X0.06299 Y-0.74961
G01 X0.05399 Y-0.75055
G01 X0.04538 Y-0.75335
G01 X0.03722 Y-0.75814
G01 X0.03110 Y-0.76364
G01 X0.02571 Y-0.77091
G01 X0.02170 Y-0.77993
G01 X0.01999 Y-0.78798
G01 X0.01990 Y-0.79703
G04 P0 ( dwell for no time -- G64 should not smooth over this point )
G00 Z0.03937 ( retract )

G00 X0.01902 Y-1.14528 ( rapid move to begin. )
G01 F3.93701
G01 Z-0.00394
G04 P0 ( dwell for no time -- G64 should not smooth over this point )
G01 F7.87402
G01 X0.01902 Y-1.14528
G01 X0.01902 Y-0.89577
G01 X0.02052 Y-0.89081
G01 X0.02299 Y-0.88834
G01 X0.02602 Y-0.88705
G01 X0.03063 Y-0.88729
G01 X0.03426 Y-0.88944
G01 X0.04272 Y-0.90179
G01 X0.04796 Y-0.90549
G01 X0.08270 Y-0.94022
G01 X0.08639 Y-0.94546
G01 X0.10475 Y-0.95773
G01 X0.12641 Y-0.96204
G01 X0.13272 Y-0.96094
G01 X0.31140 Y-0.96094
G01 X0.31517 Y-0.96179
G01 X0.31834 Y-0.96432
G01 X0.32016 Y-0.96814
G01 X0.32148 Y-0.97477
G01 X0.32503 Y-0.98008
G01 X0.33035 Y-0.98363
G01 X0.33749 Y-0.98506
G01 X0.40660 Y-0.98506
G01 X0.41375 Y-0.98363
G01 X0.41906 Y-0.98008
G01 X0.42261 Y-0.97477
G01 X0.42403 Y-0.96762
G01 X0.42411 Y-0.94413
G01 X0.42471 Y-0.94148
G01 X0.42652 Y-0.93872
G01 X0.43049 Y-0.93636
G01 X0.43919 Y-0.93455
G01 X0.44943 Y-0.92771
G01 X0.45173 Y-0.92454
G01 X0.46612 Y-0.91015
G01 X0.46902 Y-0.90821
G01 X0.47244 Y-0.90753
G01 X0.47586 Y-0.90821
G01 X0.47816 Y-0.90966
G01 X0.49315 Y-0.92454
G01 X0.49545 Y-0.92771
G01 X0.50569 Y-0.93455
G01 X0.51776 Y-0.93695
G01 X0.52163 Y-0.93634
G01 X0.53236 Y-0.93641
G01 X0.53502 Y-0.93702
G01 X0.53792 Y-0.93896
G01 X0.53985 Y-0.94185
G01 X0.54046 Y-0.94451
G01 X0.54053 Y-0.96762
G01 X0.54195 Y-0.97477
G01 X0.54551 Y-0.98008
G01 X0.55082 Y-0.98363
G01 X0.55797 Y-0.98506
G01 X0.62707 Y-0.98506
G01 X0.63422 Y-0.98363
G01 X0.63953 Y-0.98008
G01 X0.64310 Y-0.97475
G01 X0.64485 Y-0.96662
G01 X0.64804 Y-0.96256
G01 X0.65240 Y-0.96102
G01 X0.66349 Y-0.96094
G01 X0.66812 Y-0.96225
G01 X0.67128 Y-0.96560
G01 X0.67233 Y-0.96889
G01 X0.67242 Y-0.98730
G01 X0.67385 Y-0.99446
G01 X0.67739 Y-0.99977
G01 X0.68271 Y-1.00332
G01 X0.68985 Y-1.00474
G01 X0.80621 Y-1.00474
G01 X0.81335 Y-1.00332
G01 X0.81867 Y-0.99977
G01 X0.82222 Y-0.99446
G01 X0.82364 Y-0.98731
G01 X0.82364 Y-0.87096
G01 X0.82222 Y-0.86381
G01 X0.81867 Y-0.85850
G01 X0.81236 Y-0.85355
G01 X0.81075 Y-0.84862
G01 X0.81225 Y-0.84346
G01 X0.81867 Y-0.83835
G01 X0.82222 Y-0.83304
G01 X0.82364 Y-0.82589
G01 X0.82364 Y-0.70951
G01 X0.82268 Y-0.70335
G01 X0.82406 Y-0.69894
G01 X0.82818 Y-0.69548
G01 X0.83160 Y-0.69480
G01 X0.87394 Y-0.69480
G01 X0.87770 Y-0.69565
G01 X0.88039 Y-0.69756
G01 X0.88219 Y-0.70032
G01 X0.89104 Y-0.72168
G01 X0.91217 Y-0.74282
G01 X0.93978 Y-0.75425
G01 X0.96967 Y-0.75425
G01 X0.99728 Y-0.74282
G01 X1.01841 Y-0.72168
G01 X1.02098 Y-0.71548
G01 X1.02291 Y-0.71258
G01 X1.02581 Y-0.71064
G01 X1.02924 Y-0.70996
G01 X1.08865 Y-0.71013
G01 X1.09187 Y-0.71147
G01 X1.09385 Y-0.71334
G01 X1.09772 Y-0.72167
G01 X1.11887 Y-0.74282
G01 X1.14647 Y-0.75425
G01 X1.17636 Y-0.75425
G01 X1.20397 Y-0.74282
G01 X1.22510 Y-0.72168
G01 X1.22830 Y-0.71426
G01 X1.23129 Y-0.71127
G01 X1.23595 Y-0.70996
G01 X1.25639 Y-0.71010
G01 X1.26101 Y-0.71244
G01 X1.26360 Y-0.71715
G01 X1.26360 Y-0.72064
G01 X1.26238 Y-0.72677
G01 X1.26668 Y-0.74840
G01 X1.27893 Y-0.76674
G01 X1.29727 Y-0.77899
G01 X1.31344 Y-0.78220
G01 X1.36373 Y-0.78220
G01 X1.37990 Y-0.77899
G01 X1.39823 Y-0.76674
G01 X1.41048 Y-0.74840
G01 X1.41479 Y-0.72677
G01 X1.41048 Y-0.70514
G01 X1.39823 Y-0.68681
G01 X1.37990 Y-0.67455
G01 X1.36372 Y-0.67134
G01 X1.32833 Y-0.67107
G01 X1.32413 Y-0.66872
G01 X1.31551 Y-0.66011
G01 X1.31321 Y-0.65694
G01 X1.30297 Y-0.65009
G01 X1.29090 Y-0.64769
G01 X1.28703 Y-0.64831
G01 X1.23593 Y-0.64831
G01 X1.23269 Y-0.64770
G01 X1.22851 Y-0.64435
G01 X1.22511 Y-0.63660
G01 X1.20397 Y-0.61545
G01 X1.17636 Y-0.60401
G01 X1.14647 Y-0.60401
G01 X1.11887 Y-0.61545
G01 X1.09772 Y-0.63660
G01 X1.09385 Y-0.64493
G01 X1.09187 Y-0.64680
G01 X1.08865 Y-0.64813
G01 X1.02924 Y-0.64831
G01 X1.02581 Y-0.64763
G01 X1.02291 Y-0.64569
G01 X1.02098 Y-0.64279
G01 X1.01841 Y-0.63658
G01 X0.99728 Y-0.61545
G01 X0.96967 Y-0.60401
G01 X0.93978 Y-0.60401
G01 X0.91217 Y-0.61545
G01 X0.89709 Y-0.63053
G01 X0.89419 Y-0.63247
G01 X0.89077 Y-0.63315
G01 X0.62687 Y-0.63315
G01 X0.62174 Y-0.63153
G01 X0.61944 Y-0.62918
G01 X0.61833 Y-0.62669
G01 X0.61793 Y-0.59124
G01 X0.61651 Y-0.58409
G01 X0.61296 Y-0.57877
G01 X0.60764 Y-0.57522
G01 X0.60050 Y-0.57380
G01 X0.54123 Y-0.57380
G01 X0.53409 Y-0.57522
G01 X0.52467 Y-0.58220
G01 X0.52133 Y-0.58288
G01 X0.51877 Y-0.58253
G01 X0.50667 Y-0.58494
G01 X0.49643 Y-0.59178
G01 X0.49413 Y-0.59495
G01 X0.47974 Y-0.60924
G01 X0.47743 Y-0.61068
G01 X0.47402 Y-0.61136
G01 X0.47059 Y-0.61068
G01 X0.46829 Y-0.60924
G01 X0.45390 Y-0.59495
G01 X0.45160 Y-0.59178
G01 X0.44136 Y-0.58494
G01 X0.42928 Y-0.58254
G01 X0.42539 Y-0.58315
G01 X0.40631 Y-0.58298
G01 X0.40326 Y-0.58175
G01 X0.40043 Y-0.57882
G01 X0.39505 Y-0.57522
G01 X0.38790 Y-0.57380
G01 X0.32864 Y-0.57380
G01 X0.32149 Y-0.57522
G01 X0.31617 Y-0.57877
G01 X0.31262 Y-0.58409
G01 X0.31120 Y-0.59123
G01 X0.31120 Y-0.62884
G01 X0.31262 Y-0.63599
G01 X0.31617 Y-0.64131
G01 X0.32149 Y-0.64485
G01 X0.32490 Y-0.64553
G01 X0.32776 Y-0.64429
G01 X0.38878 Y-0.64429
G01 X0.39167 Y-0.64557
G01 X0.39619 Y-0.64480
G01 X0.41286 Y-0.64480
G01 X0.41628 Y-0.64548
G01 X0.41858 Y-0.64693
G01 X0.42051 Y-0.64904
G01 X0.42153 Y-0.65139
G01 X0.42193 Y-0.81812
G01 X0.42031 Y-0.82325
G01 X0.41796 Y-0.82556
G01 X0.41338 Y-0.82704
G01 X0.40663 Y-0.82597
G01 X0.33749 Y-0.82597
G01 X0.33035 Y-0.82739
G01 X0.32503 Y-0.83094
G01 X0.32148 Y-0.83625
G01 X0.32016 Y-0.84288
G01 X0.31834 Y-0.84670
G01 X0.31517 Y-0.84923
G01 X0.31140 Y-0.85008
G01 X0.15304 Y-0.85008
G01 X0.14876 Y-0.84894
G01 X0.14232 Y-0.84282
G01 X0.14103 Y-0.83978
G01 X0.14089 Y-0.83708
G01 X0.14185 Y-0.83376
G01 X0.15458 Y-0.81455
G01 X0.15888 Y-0.79291
G01 X0.15458 Y-0.77128
G01 X0.14629 Y-0.75884
G01 X0.14498 Y-0.75421
G01 X0.14566 Y-0.75079
G01 X0.14711 Y-0.74848
G01 X0.15330 Y-0.74389
G01 X0.15686 Y-0.73855
G01 X0.15829 Y-0.73140
G01 X0.15829 Y-0.65442
G01 X0.15686 Y-0.64725
G01 X0.15226 Y-0.63967
G01 X0.15180 Y-0.63699
G01 X0.15248 Y-0.63357
G01 X0.15442 Y-0.63067
G01 X0.30643 Y-0.47890
G01 X0.30965 Y-0.47756
G01 X0.31314 Y-0.47756
G01 X0.31636 Y-0.47890
G01 X0.32050 Y-0.48167
G01 X0.32765 Y-0.48309
G01 X0.39676 Y-0.48309
G01 X0.40391 Y-0.48167
G01 X0.40922 Y-0.47812
G01 X0.41277 Y-0.47280
G01 X0.41419 Y-0.46564
G01 X0.41433 Y-0.44765
G01 X0.41681 Y-0.44289
G01 X0.42157 Y-0.44041
G01 X0.42717 Y-0.44088
G01 X0.43919 Y-0.43849
G01 X0.44943 Y-0.43165
G01 X0.45173 Y-0.42848
G01 X0.46180 Y-0.41852
G01 X0.46410 Y-0.41707
G01 X0.46752 Y-0.41639
G01 X0.47094 Y-0.41707
G01 X0.47324 Y-0.41852
G01 X0.48331 Y-0.42848
G01 X0.48561 Y-0.43165
G01 X0.49585 Y-0.43849
G01 X0.50792 Y-0.44089
G01 X0.51179 Y-0.44028
G01 X0.52252 Y-0.44035
G01 X0.52517 Y-0.44095
G01 X0.52807 Y-0.44289
G01 X0.53055 Y-0.44765
G01 X0.53069 Y-0.46564
G01 X0.53211 Y-0.47280
G01 X0.53566 Y-0.47812
G01 X0.54098 Y-0.48167
G01 X0.54812 Y-0.48309
G01 X0.61723 Y-0.48309
G01 X0.62438 Y-0.48167
G01 X0.62969 Y-0.47812
G01 X0.63325 Y-0.47278
G01 X0.63543 Y-0.46381
G01 X0.63701 Y-0.46159
G01 X0.63990 Y-0.45966
G01 X0.64333 Y-0.45898
G01 X0.66349 Y-0.45898
G01 X0.66861 Y-0.46059
G01 X0.67092 Y-0.46295
G01 X0.67203 Y-0.46543
G01 X0.67242 Y-0.49124
G01 X0.67385 Y-0.49839
G01 X0.67739 Y-0.50371
G01 X0.68271 Y-0.50726
G01 X0.68986 Y-0.50868
G01 X0.80620 Y-0.50868
G01 X0.81335 Y-0.50726
G01 X0.81867 Y-0.50371
G01 X0.82222 Y-0.49839
G01 X0.82364 Y-0.49125
G01 X0.82364 Y-0.37489
G01 X0.82222 Y-0.36775
G01 X0.81867 Y-0.36243
G01 X0.81530 Y-0.35945
G01 X0.81369 Y-0.35452
G01 X0.81519 Y-0.34936
G01 X0.81867 Y-0.34623
G01 X0.82222 Y-0.34091
G01 X0.82364 Y-0.33376
G01 X0.82364 Y-0.21738
G01 X0.82266 Y-0.21158
G01 X0.82397 Y-0.20698
G01 X0.82696 Y-0.20398
G01 X0.83160 Y-0.20268
G01 X0.88723 Y-0.20268
G01 X0.89109 Y-0.20329
G01 X0.90317 Y-0.20089
G01 X0.91341 Y-0.19405
G01 X0.91572 Y-0.19087
G01 X0.94290 Y-0.16407
G01 X0.94734 Y-0.16276
G01 X0.95150 Y-0.16370
G01 X0.97755 Y-0.16370
G01 X1.00154 Y-0.15376
G01 X1.01996 Y-0.13534
G01 X1.02224 Y-0.13174
G01 X1.02500 Y-0.12993
G01 X1.02765 Y-0.12933
G01 X1.09931 Y-0.12942
G01 X1.10359 Y-0.13161
G01 X1.10602 Y-0.13534
G01 X1.12444 Y-0.15376
G01 X1.14843 Y-0.16370
G01 X1.17440 Y-0.16370
G01 X1.19839 Y-0.15376
G01 X1.21681 Y-0.13534
G01 X1.21833 Y-0.13263
G01 X1.22203 Y-0.12986
G01 X1.22529 Y-0.12925
G01 X1.25658 Y-0.12942
G01 X1.25963 Y-0.13065
G01 X1.26141 Y-0.13215
G01 X1.26360 Y-0.13645
G01 X1.26360 Y-0.13993
G01 X1.26238 Y-0.14606
G01 X1.26668 Y-0.16769
G01 X1.27893 Y-0.18603
G01 X1.29727 Y-0.19828
G01 X1.31344 Y-0.20150
G01 X1.36373 Y-0.20150
G01 X1.37990 Y-0.19828
G01 X1.39823 Y-0.18603
G01 X1.41048 Y-0.16769
G01 X1.41479 Y-0.14606
G01 X1.41048 Y-0.12443
G01 X1.39823 Y-0.10610
G01 X1.37990 Y-0.09385
G01 X1.36372 Y-0.09063
G01 X1.32870 Y-0.09046
G01 X1.32413 Y-0.08801
G01 X1.31551 Y-0.07940
G01 X1.31321 Y-0.07623
G01 X1.30297 Y-0.06939
G01 X1.29090 Y-0.06698
G01 X1.28702 Y-0.06760
G01 X1.22353 Y-0.06743
G01 X1.21924 Y-0.06524
G01 X1.21681 Y-0.06151
G01 X1.19960 Y-0.04429
G01 X0.92639 Y-0.04429
G01 X0.90923 Y-0.06145
G01 X0.89929 Y-0.08544
G01 X0.89929 Y-0.11149
G01 X0.90014 Y-0.11449
G01 X0.89947 Y-0.11906
G01 X0.89762 Y-0.12178
G01 X0.88099 Y-0.13841
G01 X0.87809 Y-0.14034
G01 X0.87467 Y-0.14102
G01 X0.63319 Y-0.14088
G01 X0.62842 Y-0.13841
G01 X0.62594 Y-0.13365
G01 X0.62580 Y-0.10305
G01 X0.62438 Y-0.09590
G01 X0.62083 Y-0.09058
G01 X0.61552 Y-0.08703
G01 X0.60837 Y-0.08561
G01 X0.54911 Y-0.08561
G01 X0.54196 Y-0.08703
G01 X0.53504 Y-0.09085
G01 X0.52265 Y-0.09102
G01 X0.51875 Y-0.09041
G01 X0.50667 Y-0.09281
G01 X0.49643 Y-0.09965
G01 X0.49413 Y-0.10282
G01 X0.48348 Y-0.11337
G01 X0.48118 Y-0.11482
G01 X0.47775 Y-0.11550
G01 X0.47434 Y-0.11482
G01 X0.47203 Y-0.11337
G01 X0.46138 Y-0.10282
G01 X0.45908 Y-0.09965
G01 X0.44884 Y-0.09281
G01 X0.43676 Y-0.09041
G01 X0.43288 Y-0.09102
G01 X0.40985 Y-0.09085
G01 X0.40292 Y-0.08703
G01 X0.39577 Y-0.08561
G01 X0.33651 Y-0.08561
G01 X0.32936 Y-0.08703
G01 X0.32405 Y-0.09058
G01 X0.32050 Y-0.09590
G01 X0.31908 Y-0.10304
G01 X0.31908 Y-0.14066
G01 X0.32050 Y-0.14780
G01 X0.32405 Y-0.15312
G01 X0.32936 Y-0.15667
G01 X0.33277 Y-0.15734
G01 X0.33563 Y-0.15610
G01 X0.35614 Y-0.15610
G01 X0.35998 Y-0.15421
G01 X0.36460 Y-0.15323
G01 X0.37152 Y-0.15396
G01 X0.37614 Y-0.15610
G01 X0.39665 Y-0.15610
G01 X0.39951 Y-0.15734
G01 X0.40292 Y-0.15667
G01 X0.40912 Y-0.15307
G01 X0.41330 Y-0.15269
G01 X0.41641 Y-0.15336
G01 X0.41871 Y-0.15480
G01 X0.42125 Y-0.15819
G01 X0.42193 Y-0.16161
G01 X0.42193 Y-0.32074
G01 X0.42053 Y-0.32554
G01 X0.41659 Y-0.32892
G01 X0.41202 Y-0.32958
G01 X0.40871 Y-0.32854
G01 X0.40391 Y-0.32542
G01 X0.39676 Y-0.32400
G01 X0.32765 Y-0.32400
G01 X0.32050 Y-0.32542
G01 X0.31519 Y-0.32897
G01 X0.31164 Y-0.33428
G01 X0.31021 Y-0.34147
G01 X0.30995 Y-0.34674
G01 X0.30732 Y-0.35120
G01 X0.30302 Y-0.35339
G01 X0.29724 Y-0.35293
G01 X0.27561 Y-0.35723
G01 X0.25725 Y-0.36950
G01 X0.25356 Y-0.37473
G01 X0.03960 Y-0.58869
G01 X0.03432 Y-0.59632
G01 X0.03105 Y-0.59844
G01 X0.02696 Y-0.59892
G01 X0.02344 Y-0.59775
G01 X0.02121 Y-0.59590
G01 X0.01977 Y-0.59363
G01 X0.01902 Y-0.59005
G01 X0.01902 Y-0.02795
G01 X0.01970 Y-0.02453
G01 X0.02268 Y-0.02075
G01 X0.02471 Y-0.01963
G01 X0.02795 Y-0.01902
G01 X0.31871 Y-0.01902
G01 X0.32852 Y-0.00984
G01 X0.33456 Y-0.00734
G01 X0.33858 Y-0.00689
G01 X1.40354 Y-0.00689
G01 X1.40757 Y-0.00734
G01 X1.41360 Y-0.00984
G01 X1.42342 Y-0.01902
G01 X1.47839 Y-0.01903
G01 X1.48296 Y-0.02052
G01 X1.48531 Y-0.02282
G01 X1.48694 Y-0.02794
G01 X1.48881 Y-1.14526
G01 X1.48797 Y-1.14904
G01 X1.48500 Y-1.15259
G01 X1.47987 Y-1.15421
G01 X0.02795 Y-1.15421
G01 X0.02462 Y-1.15354
G01 X0.02160 Y-1.15155
G01 X0.01983 Y-1.14900
G01 X0.01902 Y-1.14528

G04 P0 ( dwell for no time -- G64 should not smooth over this point )
G00 Z0.394 ( retract )

M5 ( Spindle off. )
G04 P1.000000
M9 ( Coolant off. )
M2 ( Program end. )

