( pcb2gcode 2.0.0 )
( Software-independent Gcode )
( This file uses a mill head of 0.03150inch to drill the 3 hole sizes. )
( Hole sizes: [0.0315 inch] [0.0394 inch] [0.0866 inch] )

G94       (Inches per minute feed rate.)
G20       (Units == INCHES.)
G91.1     (Incremental arc distance mode.)
G90       (Absolute coordinates.)
S1000    (RPM spindle speed.)
G01 F1.18110 (Feedrate)
M3        (Spindle on clockwise.)
G04 P1.00000
G00 Z0.03937

G0 X0.95470 Y-0.67910
G1 Z-0.09843 F0.59055
G0 Z0.03937

G0 X0.95470 Y-0.87600
G1 Z-0.09843 F0.59055
G0 Z0.03937

G0 X1.16140 Y-0.87600
G1 Z-0.09843 F0.59055
G0 Z0.03937

G0 X1.16140 Y-0.67910
G1 Z-0.09843 F0.59055
G0 Z0.03937

G0 X1.16140 Y-0.29530
G1 Z-0.09843 F0.59055
G0 Z0.03937

G0 X0.96460 Y-0.29530
G1 Z-0.09843 F0.59055
G0 Z0.03937

G0 X0.96460 Y-0.09840
G1 Z-0.09843 F0.59055
G0 Z0.03937

G0 X1.16140 Y-0.09840
G1 Z-0.09843 F0.59055
G0 Z0.03937

G0 X0.08665 Y-0.69290
G1 Z0.09843 F0.59055
F1.18110
G2 X0.08665 Y-0.69290 Z-0.00000 I-0.00395 J0.00000
G2 X0.08665 Y-0.69290 Z-0.09843 I-0.00395 J0.00000
G2 X0.08665 Y-0.69290 I-0.00395 J0.00000
G0 Z0.03937

G0 X0.08665 Y-0.79290
G1 Z0.09843 F0.59055
F1.18110
G2 X0.08665 Y-0.79290 Z-0.00000 I-0.00395 J0.00000
G2 X0.08665 Y-0.79290 Z-0.09843 I-0.00395 J0.00000
G2 X0.08665 Y-0.79290 I-0.00395 J0.00000
G0 Z0.03937

G0 X0.75195 Y-0.92910
G1 Z0.09843 F0.59055
F1.18110
G2 X0.75195 Y-0.92910 Z-0.00000 I-0.00395 J0.00000
G2 X0.75195 Y-0.92910 Z-0.09843 I-0.00395 J0.00000
G2 X0.75195 Y-0.92910 I-0.00395 J0.00000
G0 Z0.03937

G0 X0.75195 Y-0.76770
G1 Z0.09843 F0.59055
F1.18110
G2 X0.75195 Y-0.76770 Z-0.00000 I-0.00395 J0.00000
G2 X0.75195 Y-0.76770 Z-0.09843 I-0.00395 J0.00000
G2 X0.75195 Y-0.76770 I-0.00395 J0.00000
G0 Z0.03937

G0 X0.75195 Y-0.43310
G1 Z0.09843 F0.59055
F1.18110
G2 X0.75195 Y-0.43310 Z-0.00000 I-0.00395 J0.00000
G2 X0.75195 Y-0.43310 Z-0.09843 I-0.00395 J0.00000
G2 X0.75195 Y-0.43310 I-0.00395 J0.00000
G0 Z0.03937

G0 X0.75195 Y-0.27560
G1 Z0.09843 F0.59055
F1.18110
G2 X0.75195 Y-0.27560 Z-0.00000 I-0.00395 J0.00000
G2 X0.75195 Y-0.27560 Z-0.09843 I-0.00395 J0.00000
G2 X0.75195 Y-0.27560 I-0.00395 J0.00000
G0 Z0.03937

G0 X1.34255 Y-0.14610
G1 Z0.09843 F0.59055
F1.18110
G2 X1.34255 Y-0.14610 Z-0.00000 I-0.00395 J0.00000
G2 X1.34255 Y-0.14610 Z-0.09843 I-0.00395 J0.00000
G2 X1.34255 Y-0.14610 I-0.00395 J0.00000
G0 Z0.03937

G0 X1.34255 Y-0.24610
G1 Z0.09843 F0.59055
F1.18110
G2 X1.34255 Y-0.24610 Z-0.00000 I-0.00395 J0.00000
G2 X1.34255 Y-0.24610 Z-0.09843 I-0.00395 J0.00000
G2 X1.34255 Y-0.24610 I-0.00395 J0.00000
G0 Z0.03937

G0 X1.34255 Y-0.72680
G1 Z0.09843 F0.59055
F1.18110
G2 X1.34255 Y-0.72680 Z-0.00000 I-0.00395 J0.00000
G2 X1.34255 Y-0.72680 Z-0.09843 I-0.00395 J0.00000
G2 X1.34255 Y-0.72680 I-0.00395 J0.00000
G0 Z0.03937

G0 X1.34255 Y-0.82680
G1 Z0.09843 F0.59055
F1.18110
G2 X1.34255 Y-0.82680 Z-0.00000 I-0.00395 J0.00000
G2 X1.34255 Y-0.82680 Z-0.09843 I-0.00395 J0.00000
G2 X1.34255 Y-0.82680 I-0.00395 J0.00000
G0 Z0.03937

G0 X0.14565 Y-0.11810
G1 Z0.09843 F0.59055
F1.18110
G2 X0.14565 Y-0.11810 Z-0.00000 I-0.02755 J0.00000
G2 X0.14565 Y-0.11810 Z-0.09843 I-0.02755 J0.00000
G2 X0.14565 Y-0.11810 I-0.02755 J0.00000
G0 Z0.03937

G0 X0.13585 Y-1.06300
G1 Z0.09843 F0.59055
F1.18110
G2 X0.13585 Y-1.06300 Z-0.00000 I-0.02755 J0.00000
G2 X0.13585 Y-1.06300 Z-0.09843 I-0.02755 J0.00000
G2 X0.13585 Y-1.06300 I-0.02755 J0.00000
G0 Z0.03937

G0 X1.42125 Y-1.00790
G1 Z0.09843 F0.59055
F1.18110
G2 X1.42125 Y-1.00790 Z-0.00000 I-0.02755 J0.00000
G2 X1.42125 Y-1.00790 Z-0.09843 I-0.02755 J0.00000
G2 X1.42125 Y-1.00790 I-0.02755 J0.00000
G0 Z0.03937

G0 X1.42515 Y-0.42320
G1 Z0.09843 F0.59055
F1.18110
G2 X1.42515 Y-0.42320 Z-0.00000 I-0.02755 J0.00000
G2 X1.42515 Y-0.42320 Z-0.09843 I-0.02755 J0.00000
G2 X1.42515 Y-0.42320 I-0.02755 J0.00000
G0 Z0.03937

G00 Z0.394 ( All done -- retract )

M5      (Spindle off.)
G04 P1.000000
M9      (Coolant off.)
M2      (Program end.)

