( pcb2gcode 2.0.0 )
( Software-independent Gcode )

G94 ( Inches per minute feed rate. )
G20 ( Units == INCHES. )

G90 ( Absolute coordinates. )
G00 S1000 ( RPM spindle speed. )
G64 P0.00040 ( set maximum deviation from commanded toolpath )
G01 F1.18110 ( Feedrate. )


G00 Z0.39370 (Retract to tool change height)
T0
M5      (Spindle stop.)
G04 P1.00000 (Wait for spindle to stop)
(MSG, Change tool bit to cutter diameter 0.03150in)
M6      (Tool change.)
M0      (Temporary machine stop.)
M3 ( Spindle on clockwise. )
G04 P1.00000 (Wait for spindle to get up to speed)
G04 P0 ( dwell for no time -- G64 should not smooth over this point )
G00 Z0.03937 ( retract )

G00 X-0.01575 Y-1.17323 ( rapid move to begin. )
G01 Z-0.09843 F0.59055 ( plunge. )
G04 P0 ( dwell for no time -- G64 should not smooth over this point )
G01 F1.18110
G01 X-0.01575 Y-0.60630
G00 Z0.03937
G01 X-0.01575 Y-0.56693
G01 Z-0.09843 F0.59055
G01 F1.18110
G01 X-0.01575 Y0.00000
G01 X-0.01455 Y0.00603
G01 X-0.01309 Y0.00875
G01 X-0.00875 Y0.01309
G01 X-0.00603 Y0.01455
G01 X0.00000 Y0.01575
G01 X0.73327 Y0.01575
G00 Z0.03937
G01 X0.77264 Y0.01575
G01 Z-0.09843 F0.59055
G01 F1.18110
G01 X1.50591 Y0.01575
G01 X1.51193 Y0.01455
G01 X1.51704 Y0.01114
G01 X1.51900 Y0.00875
G01 X1.52045 Y0.00603
G01 X1.52165 Y0.00000
G01 X1.52165 Y-0.56693
G00 Z0.03937
G01 X1.52165 Y-0.60630
G01 Z-0.09843 F0.59055
G01 F1.18110
G01 X1.52165 Y-1.17323
G01 X1.52045 Y-1.17925
G01 X1.51900 Y-1.18198
G01 X1.51465 Y-1.18632
G01 X1.51193 Y-1.18778
G01 X1.50591 Y-1.18898
G01 X0.77264 Y-1.18898
G00 Z0.03937
G01 X0.73327 Y-1.18898
G01 Z-0.09843 F0.59055
G01 F1.18110
G01 X0.00000 Y-1.18898
G01 X-0.00603 Y-1.18778
G01 X-0.01114 Y-1.18436
G01 X-0.01455 Y-1.17925
G01 X-0.01575 Y-1.17323

G04 P0 ( dwell for no time -- G64 should not smooth over this point )
G00 Z0.394 ( retract )

M5 ( Spindle off. )
G04 P1.000000
M9 ( Coolant off. )
M2 ( Program end. )

